; generated by PrusaSlicer 2.6.0-alpha6+win64 on 2024-11-12 at 11:19:05 UTC


;
;
; 

; external perimeters extrusion width = 0.45mm
; perimeters extrusion width = 0.45mm
; infill extrusion width = 0.45mm
; solid infill extrusion width = 0.68mm
; top infill extrusion width = 0.40mm
; first layer extrusion width = 0.68mm

M73 P0 R54
M73 Q0 S72
M201 X2000 Y2000 Z200 E5000 ; sets maximum accelerations, mm/sec^2
M203 X200 Y200 Z40 E300 ; sets maximum feedrates, mm / sec
M204 S2000 T2000 ; sets acceleration (S) and retract acceleration (R), mm/sec^2
M205 X8.00 Y8.00 Z0.40 E4.50 ; sets the jerk limits, mm/sec
M205 S0 T0 ; sets the minimum extruding and travel feed rate, mm/sec
;TYPE:Custom
M862.3 P "MK3S" ; printer model check
M862.1 P0.4 ; nozzle diameter check
M115 U3.12.2 ; tell printer latest fw version
G90 ; use absolute coordinates
M83 ; extruder relative mode
M104 S215 ; set extruder temp
M140 S60 ; set bed temp
M190 S60 ; wait for bed temp
M109 S215 ; wait for extruder temp
G1 E-2 F2000 ; // prevent oozing during G28
G28 W ; home all without mesh bed level
G80 ; mesh bed leveling

G1 Z0.2 F720
G1 Y-3 F1000 ; go outside print area
G92 E0
G1 X60 E9 F1000 ; intro line
G1 X100 E12.5 F1000 ; intro line

G92 E0
M221 S95

; Don't change E values below. Excessive value can damage the printer.

G21 ; set units to millimeters
G90 ; use absolute coordinates
M83 ; use relative distances for extrusion
M900 K0.05 ; Filament gcode LA 1.5
M900 K30 ; Filament gcode LA 1.0
M107
;LAYER_CHANGE
;Z:0.2
;HEIGHT:0.2
;BEFORE_LAYER_CHANGE
G92 E0.0
;0.2


G1 E-1 F2100
G1 Z.4 F1800
;AFTER_LAYER_CHANGE
;0.2
; printing object p1.stl id:0 copy 0
G1 X147.688 Y119.279 F24000
G1 Z.2 F1800
G1 E1 F2100
M204 S2000
;TYPE:Perimeter
;WIDTH:0.705378
G1 F4359
G1 X146.802 Y120.564 E.08598
;WIDTH:0.663986
G1 X146.715 Y120.685 E.0077
;WIDTH:0.704868
G1 X145.947 Y121.729 E.07134
G1 X144.811 Y123.031 E.09511
;WIDTH:0.664916
G1 X144.711 Y123.142 E.00773
;WIDTH:0.703829
G1 X143.943 Y123.97 E.06206
G1 X142.543 Y125.247 E.10414
;WIDTH:0.66638
G1 X142.431 Y125.345 E.00772
;WIDTH:0.702272
G1 X141.7 Y125.972 E.0528
G1 X140.03 Y127.179 E.11297
;WIDTH:0.668371
G1 X139.907 Y127.265 E.00781
;WIDTH:0.700186
G1 X139.248 Y127.711 E.04349
G1 X137.305 Y128.802 E.12178
;WIDTH:0.670883
G1 X137.174 Y128.874 E.00781
;WIDTH:0.697527
G1 X136.616 Y129.164 E.03423
G1 X134.43 Y130.084 E.12909
;WIDTH:0.671162
G1 X134.404 Y130.095 E.00147
;WIDTH:0.695353
G1 X133.839 Y130.314 E.03287
G1 X131.38 Y131.033 E.13899
;WIDTH:0.690778
G1 X130.949 Y131.146 E.024
G1 X128.261 Y131.61 E.14694
;WIDTH:0.686597
G1 X128.002 Y131.649 E.01402
G1 X125.094 Y131.815 E.1559
;WIDTH:0.682004
G1 X124.911 Y131.815 E.00972
;WIDTH:0.686597
G1 X122.016 Y131.65 E.1552
G1 X121.751 Y131.612 E.01433
;WIDTH:0.690776
G1 X119.052 Y131.147 E.14754
G1 X118.62 Y131.033 E.02407
;WIDTH:0.695264
G1 X116.162 Y130.314 E.13892
G1 X115.572 Y130.085 E.03433
;WIDTH:0.697534
G1 X113.383 Y129.164 E.12927
G1 X112.694 Y128.802 E.04236
;WIDTH:0.700187
G1 X110.752 Y127.71 E.12176
G1 X109.97 Y127.179 E.05166
;WIDTH:0.702266
G1 X108.299 Y125.972 E.11301
G1 X107.456 Y125.246 E.06099
;WIDTH:0.70382
G1 X106.057 Y123.969 E.10409
G1 X105.287 Y123.141 E.06214
;WIDTH:0.664877
G1 X105.188 Y123.03 E.00769
;WIDTH:0.704846
G1 X104.052 Y121.729 E.09506
G1 X103.283 Y120.683 E.07146
;WIDTH:0.663935
G1 X103.197 Y120.562 E.00767
;WIDTH:0.705346
G1 X102.311 Y119.278 E.08593
G1 X101.583 Y118.007 E.08068
;WIDTH:0.663587
G1 X101.51 Y117.876 E.00774
;WIDTH:0.705547
G1 X100.839 Y116.615 E.0787
G1 X100.202 Y115.131 E.08898
;WIDTH:0.664189
G1 X100.145 Y114.993 E.00771
;WIDTH:0.704566
G1 X99.69 Y113.837 E.06835
G1 X99.178 Y112.13 E.09805
;WIDTH:0.665298
G1 X99.137 Y111.987 E.0077
;WIDTH:0.703242
G1 X98.86 Y110.947 E.05909
G1 X98.518 Y109.048 E.10594
;WIDTH:0.666933
G1 X98.493 Y108.901 E.00774
;WIDTH:0.702172
G1 X98.357 Y107.983 E.05087
G1 X98.221 Y105.872 E.11596
;WIDTH:0.669135
G1 X98.214 Y105.722 E.00782
;WIDTH:0.699394
G1 X98.19 Y104.982 E.04041
G1 X98.303 Y102.701 E.12466
;WIDTH:0.671845
G1 X98.312 Y102.552 E.00781
;WIDTH:0.69662
G1 X98.359 Y101.98 E.0312
G1 X98.757 Y99.562 E.1332
;WIDTH:0.672136
G1 X98.761 Y99.537 E.00132
;WIDTH:0.693308
G1 X98.863 Y99.016 E.02871
G1 X99.578 Y96.499 E.1415
;WIDTH:0.689483
G1 X99.695 Y96.126 E.02102
G1 X100.749 Y93.569 E.14869
;WIDTH:0.686176
G1 X100.838 Y93.364 E.01195
G1 X102.283 Y90.748 E.15985
;WIDTH:0.684643
G1 X102.384 Y90.599 E.00961
;WIDTH:0.688086
G1 X104.023 Y88.295 E.15168
G1 X104.231 Y88.051 E.0172
;WIDTH:0.692082
G1 X106.027 Y86.052 E.14506
G1 X106.393 Y85.71 E.02704
;WIDTH:0.696338
G1 X108.269 Y84.049 E.13614
G1 X108.821 Y83.639 E.03736
;WIDTH:0.698459
G1 X110.72 Y82.308 E.1264
G1 X111.442 Y81.89 E.04547
;WIDTH:0.700929
G1 X113.351 Y80.853 E.11886
G1 X114.269 Y80.452 E.05481
;WIDTH:0.702825
G1 X116.128 Y79.702 E.10999
G1 X117.245 Y79.358 E.06413
;WIDTH:0.704167
G1 X119.017 Y78.868 E.10109
G1 X120.182 Y78.648 E.06519
;WIDTH:0.664481
G1 X120.33 Y78.623 E.00776
;WIDTH:0.705406
G1 X121.98 Y78.363 E.09201
G1 X123.351 Y78.263 E.07572
;WIDTH:0.663694
G1 X123.5 Y78.255 E.0077
;WIDTH:0.705368
G1 X125.019 Y78.193 E.08374
G1 X126.522 Y78.256 E.08286
;WIDTH:0.663721
G1 X126.671 Y78.265 E.00771
;WIDTH:0.705032
G1 X128.02 Y78.363 E.07446
G1 X129.672 Y78.623 E.09207
;WIDTH:0.664486
G1 X129.819 Y78.648 E.00771
;WIDTH:0.704203
G1 X130.984 Y78.868 E.06519
G1 X132.756 Y79.358 E.10109
;WIDTH:0.665793
G1 X132.899 Y79.4 E.00772
;WIDTH:0.702694
G1 X133.872 Y79.702 E.05589
G1 X135.711 Y80.444 E.10879
;WIDTH:0.667605
G1 X135.848 Y80.501 E.00771
;WIDTH:0.701594
G1 X136.649 Y80.854 E.04794
G1 X138.558 Y81.89 E.11896
;WIDTH:0.669938
G1 X138.689 Y81.963 E.00782
;WIDTH:0.698503
G1 X139.281 Y82.309 E.03738
G1 X141.196 Y83.651 E.12747
;WIDTH:0.672902
G1 X141.318 Y83.739 E.00788
;WIDTH:0.695556
G1 X141.731 Y84.048 E.02799
G1 X143.608 Y85.711 E.13609
;WIDTH:0.692074
G1 X143.973 Y86.052 E.02696
G1 X145.761 Y88.041 E.14436
;WIDTH:0.688067
G1 X145.966 Y88.279 E.01685
G1 X147.609 Y90.589 E.15207
;WIDTH:0.684932
G1 X147.716 Y90.746 E.01014
;WIDTH:0.686592
G1 X149.153 Y93.347 E.15904
G1 X149.25 Y93.566 E.01282
;WIDTH:0.689514
G1 X150.304 Y96.125 E.1488
G1 X150.416 Y96.481 E.02007
;WIDTH:0.693339
G1 X151.137 Y99.014 E.14243
G1 X151.243 Y99.561 E.03013
;WIDTH:0.696634
G1 X151.641 Y101.977 E.1331
G1 X151.697 Y102.7 E.03942
;WIDTH:0.699327
G1 X151.81 Y105.021 E.12683
G1 X151.779 Y105.87 E.04637
;WIDTH:0.702327
G1 X151.642 Y107.986 E.11626
G1 X151.482 Y109.053 E.05916
;WIDTH:0.703174
G1 X151.14 Y110.949 E.10577
G1 X150.864 Y111.984 E.05881
;WIDTH:0.66537
G1 X150.823 Y112.127 E.0077
;WIDTH:0.704576
G1 X150.309 Y113.838 E.09829
G1 X149.856 Y114.99 E.0681
;WIDTH:0.664299
G1 X149.799 Y115.128 E.00771
;WIDTH:0.705657
G1 X149.162 Y116.612 E.08899
G1 X148.488 Y117.879 E.07908
;WIDTH:0.66356
G1 X148.416 Y118.01 E.00771
;WIDTH:0.705378
G1 X147.719 Y119.228 E.0773
G1 X148.248 Y119.612 F24000
;TYPE:External perimeter
;WIDTH:0.679999
G1 F4359
G1 X146.468 Y122.121 E.16296
G1 X144.416 Y124.417 E.16312
G1 X142.12 Y126.469 E.16312
G1 X139.609 Y128.25 E.16308
G1 X136.914 Y129.74 E.16313
G1 X134.07 Y130.918 E.16307
G1 X131.11 Y131.771 E.16318
G1 X128.074 Y132.287 E.16313
G1 X125 Y132.459 E.16309
G1 X121.926 Y132.287 E.16309
G1 X118.89 Y131.771 E.16313
G1 X115.931 Y130.918 E.16313
G1 X113.086 Y129.74 E.16312
G1 X110.391 Y128.25 E.16313
G1 X107.879 Y126.468 E.16315
G1 X105.583 Y124.417 E.16309
G1 X103.531 Y122.121 E.16312
G1 X101.75 Y119.609 E.16312
G1 X100.26 Y116.914 E.16313
G1 X99.082 Y114.069 E.16312
G1 X98.229 Y111.11 E.16313
G1 X97.713 Y108.074 E.16313
G1 X97.541 Y105 E.16309
G1 X97.713 Y101.926 E.16309
G1 X98.229 Y98.89 E.16313
G1 X99.082 Y95.931 E.16313
G1 X100.26 Y93.086 E.16312
G1 X101.75 Y90.391 E.16313
G1 X103.531 Y87.879 E.16312
G1 X105.583 Y85.583 E.16312
G1 X107.879 Y83.532 E.16309
G1 X110.391 Y81.75 E.16315
G1 X113.086 Y80.26 E.16313
G1 X115.931 Y79.082 E.16312
G1 X118.89 Y78.229 E.16313
G1 X121.925 Y77.714 E.16307
G1 X125 Y77.541 E.16315
G1 X128.074 Y77.713 E.16309
G1 X131.11 Y78.229 E.16313
G1 X134.069 Y79.082 E.16313
G1 X136.914 Y80.26 E.16312
G1 X139.611 Y81.751 E.16325
G1 X142.12 Y83.531 E.16296
G1 X144.416 Y85.583 E.16312
G1 X146.468 Y87.879 E.16312
G1 X148.25 Y90.39 E.16311
G1 X149.739 Y93.085 E.1631
G1 X150.918 Y95.929 E.16309
G1 X151.77 Y98.888 E.16312
G1 X152.286 Y101.923 E.16308
G1 X152.456 Y104.948 E.1605
G1 X152.286 Y108.077 E.166
G1 X151.77 Y111.112 E.16308
G1 X150.918 Y114.071 E.16312
G1 X149.741 Y116.911 E.16285
G1 X148.278 Y119.56 E.16031
G1 X147.849 Y119.597 F24000
G1 E-1 F2100
G1 Z.6 F1800
G1 X151.066 Y102.657 F24000
G1 Z.2 F1800
G1 E1 F2100
;TYPE:Perimeter
;WIDTH:0.67181
G1 F4359
G1 X151.071 Y102.726 E.00362
;WIDTH:0.699327
G1 X151.155 Y105.012 E.12486
G1 X151.161 Y105.712 E.03821
;WIDTH:0.669212
G1 X151.156 Y105.825 E.00589
;WIDTH:0.702327
G1 X150.985 Y107.938 E.11623
G1 X150.887 Y108.826 E.04898
;WIDTH:0.666997
G1 X150.87 Y108.936 E.00578
;WIDTH:0.703174
G1 X150.492 Y110.826 E.10582
G1 X150.26 Y111.834 E.05679
;WIDTH:0.66537
G1 X150.23 Y111.942 E.0058
;WIDTH:0.704576
G1 X149.678 Y113.641 E.09828
G1 X149.275 Y114.772 E.06606
;WIDTH:0.664299
G1 X149.232 Y114.876 E.00581
;WIDTH:0.705657
G1 X148.557 Y116.343 E.08899
G1 X147.936 Y117.595 E.07701
;WIDTH:0.66356
G1 X147.882 Y117.694 E.00582
;WIDTH:0.705378
G1 X147.138 Y118.911 E.07857
G1 X146.286 Y120.219 E.08599
;WIDTH:0.663986
G1 X146.221 Y120.31 E.00578
;WIDTH:0.704868
G1 X145.443 Y121.3 E.0693
G1 X144.338 Y122.629 E.09513
;WIDTH:0.664916
G1 X144.263 Y122.712 E.00579
;WIDTH:0.703829
G1 X143.492 Y123.486 E.06004
G1 X142.119 Y124.791 E.1041
;WIDTH:0.702272
G1 X141.31 Y125.441 E.0569
G1 X139.66 Y126.677 E.11303
;WIDTH:0.700186
G1 X138.922 Y127.14 E.04761
G1 X136.995 Y128.259 E.12178
;WIDTH:0.697527
G1 X136.359 Y128.562 E.03835
G1 X134.183 Y129.506 E.12911
;WIDTH:0.695353
G1 X133.653 Y129.688 E.0304
G1 X131.2 Y130.428 E.139
;WIDTH:0.690778
G1 X130.838 Y130.508 E.01997
G1 X128.151 Y130.984 E.147
;WIDTH:0.686597
G1 X125.054 Y131.177 E.16608
;WIDTH:0.682004
G1 X124.943 Y131.177 E.0059
;WIDTH:0.686597
G1 X121.849 Y130.984 E.16592
;WIDTH:0.690776
G1 X119.163 Y130.508 E.14695
G1 X118.8 Y130.428 E.02002
;WIDTH:0.695264
G1 X116.347 Y129.689 E.13896
G1 X115.839 Y129.516 E.02911
;WIDTH:0.671138
G1 X115.819 Y129.507 E.00115
;WIDTH:0.697534
G1 X113.641 Y128.562 E.12923
G1 X113.104 Y128.311 E.03226
;WIDTH:0.670866
G1 X113.004 Y128.259 E.00589
;WIDTH:0.700187
G1 X111.078 Y127.14 E.12174
G1 X110.432 Y126.74 E.04153
;WIDTH:0.668345
G1 X110.339 Y126.677 E.00584
;WIDTH:0.702266
G1 X108.69 Y125.441 E.11298
G1 X107.964 Y124.864 E.05084
;WIDTH:0.666347
G1 X107.88 Y124.791 E.00577
;WIDTH:0.70382
G1 X106.507 Y123.486 E.1041
G1 X105.736 Y122.71 E.06011
;WIDTH:0.664877
G1 X105.66 Y122.627 E.00582
;WIDTH:0.704846
G1 X104.556 Y121.3 E.09501
G1 X103.777 Y120.308 E.06942
;WIDTH:0.663935
G1 X103.712 Y120.217 E.00577
;WIDTH:0.705346
G1 X102.861 Y118.91 E.08591
G1 X102.117 Y117.691 E.07866
;WIDTH:0.663587
G1 X102.062 Y117.593 E.0058
;WIDTH:0.705547
G1 X101.445 Y116.345 E.07671
G1 X100.769 Y114.879 E.08895
;WIDTH:0.664189
G1 X100.727 Y114.775 E.00579
;WIDTH:0.704566
G1 X100.322 Y113.639 E.06635
G1 X99.771 Y111.944 E.09806
;WIDTH:0.665298
G1 X99.741 Y111.836 E.0058
;WIDTH:0.703242
G1 X99.508 Y110.824 E.05702
G1 X99.129 Y108.932 E.10595
;WIDTH:0.702172
G1 X99.015 Y107.935 E.05501
G1 X98.844 Y105.827 E.11593
;WIDTH:0.699394
G1 X98.845 Y105.01 E.0446
G1 X98.928 Y102.728 E.12465
;WIDTH:0.69662
G1 X99.004 Y102.083 E.0353
G1 X99.379 Y99.661 E.13322
;WIDTH:0.693308
G1 X99.489 Y99.191 E.0261
G1 X100.187 Y96.67 E.14146
;WIDTH:0.689483
G1 X100.294 Y96.372 E.01702
G1 X101.341 Y93.804 E.14909
;WIDTH:0.686176
G1 X102.844 Y91.058 E.16744
;WIDTH:0.684643
G1 X102.907 Y90.964 E.00604
;WIDTH:0.688086
G1 X104.71 Y88.465 E.16531
;WIDTH:0.692082
G1 X106.508 Y86.488 E.14425
G1 X106.809 Y86.184 E.02309
;WIDTH:0.696338
G1 X109.087 Y84.222 E.16335
;WIDTH:0.672821
G1 X109.177 Y84.155 E.00588
;WIDTH:0.698459
G1 X111.093 Y82.848 E.12642
G1 X111.639 Y82.497 E.03538
;WIDTH:0.669958
G1 X111.736 Y82.441 E.00584
;WIDTH:0.700929
G1 X113.66 Y81.434 E.11882
G1 X114.393 Y81.076 E.04463
;WIDTH:0.667607
G1 X114.496 Y81.032 E.00582
;WIDTH:0.702825
G1 X116.369 Y80.316 E.11003
G1 X117.296 Y79.991 E.0539
;WIDTH:0.665766
G1 X117.404 Y79.959 E.00583
;WIDTH:0.704167
G1 X119.187 Y79.507 E.10114
G1 X120.307 Y79.256 E.06311
;WIDTH:0.664481
G1 X120.418 Y79.237 E.00582
;WIDTH:0.705406
G1 X122.075 Y79.019 E.09206
G1 X123.405 Y78.881 E.07366
;WIDTH:0.663694
G1 X123.517 Y78.875 E.00579
;WIDTH:0.705368
G1 X125 Y78.855 E.0817
G1 X126.505 Y78.876 E.08291
;WIDTH:0.663721
G1 X126.617 Y78.883 E.00579
;WIDTH:0.705032
G1 X127.925 Y79.018 E.07239
G1 X129.583 Y79.237 E.09207
;WIDTH:0.664486
G1 X129.693 Y79.257 E.00578
;WIDTH:0.704203
G1 X130.814 Y79.507 E.06315
G1 X132.597 Y79.959 E.10114
;WIDTH:0.702694
G1 X133.631 Y80.316 E.06001
G1 X135.483 Y81.024 E.10877
;WIDTH:0.701594
G1 X136.339 Y81.435 E.05201
G1 X138.264 Y82.441 E.11896
;WIDTH:0.698503
G1 X138.908 Y82.849 E.04156
G1 X140.84 Y84.167 E.12749
;WIDTH:0.695556
G1 X141.301 Y84.539 E.03215
G1 X143.192 Y86.184 E.13601
;WIDTH:0.692074
G1 X143.491 Y86.487 E.02298
G1 X145.291 Y88.466 E.1444
;WIDTH:0.676672
G1 X145.298 Y88.474 E.00056
;WIDTH:0.688067
G1 X147.093 Y90.963 E.16462
;WIDTH:0.684932
G1 X147.154 Y91.057 E.00598
;WIDTH:0.686592
G1 X148.665 Y93.817 E.16841
;WIDTH:0.689514
G1 X149.706 Y96.37 E.14823
G1 X149.812 Y96.668 E.01701
;WIDTH:0.693339
G1 X150.511 Y99.19 E.14154
G1 X150.621 Y99.66 E.02611
;WIDTH:0.696634
G1 X151.06 Y102.597 E.16142
G1 X150.437 Y102.715 F24000
;TYPE:External perimeter
;WIDTH:0.679999
G1 F4359
G1 X150.528 Y105.769 E.16185
G1 X150.254 Y108.807 E.16159
G1 X149.634 Y111.74 E.1588
G1 X148.664 Y114.605 E.16023
G1 X147.369 Y117.325 E.15958
G1 X145.733 Y119.913 E.16219
G1 X143.85 Y122.232 E.15824
G1 X141.681 Y124.34 E.16022
G1 X139.278 Y126.176 E.1602
G1 X136.674 Y127.715 E.16023
G1 X133.928 Y128.927 E.159
G1 X131.015 Y129.821 E.16141
G1 X128.036 Y130.359 E.16036
G1 X124.981 Y130.54 E.16212
G1 X121.999 Y130.363 E.15824
G1 X119.022 Y129.83 E.16021
G1 X116.074 Y128.928 E.16331
G1 X113.325 Y127.715 E.15917
G1 X110.722 Y126.175 E.16021
G1 X108.318 Y124.339 E.16024
G1 X106.174 Y122.258 E.15828
G1 X104.266 Y119.912 E.16019
G1 X102.648 Y117.355 E.16029
G1 X101.323 Y114.573 E.16323
G1 X100.367 Y111.743 E.15824
G1 X99.745 Y108.802 E.15924
G1 X99.472 Y105.771 E.16121
G1 X99.492 Y105.029 E.03932
G1 X99.56 Y102.747 E.12094
G1 X100.005 Y99.755 E.16024
G1 X100.801 Y96.833 E.16043
G1 X101.929 Y94.048 E.15917
G1 X103.424 Y91.335 E.16409
G1 X105.179 Y88.893 E.1593
G1 X107.195 Y86.69 E.15819
G1 X109.501 Y84.702 E.16128
G1 X111.992 Y83.021 E.15919
G1 X114.681 Y81.638 E.16018
G1 X117.516 Y80.582 E.16026
G1 X120.493 Y79.861 E.16226
G1 X123.479 Y79.506 E.15929
G1 X126.504 Y79.505 E.16024
G1 X129.545 Y79.868 E.16224
G1 X132.449 Y80.571 E.15828
G1 X135.264 Y81.614 E.15903
G1 X137.976 Y83.003 E.16141
G1 X140.486 Y84.691 E.16023
G1 X142.779 Y86.664 E.16024
G1 X143.017 Y86.921 E.01856
G1 X144.824 Y88.897 E.14184
G1 X146.594 Y91.365 E.16088
G1 X148.058 Y94.022 E.1607
G1 X149.188 Y96.8 E.15887
G1 X149.987 Y99.717 E.16022
G1 X150.429 Y102.655 E.15739
G1 X150.8 Y102.883 F24000
; stop printing object p1.stl id:0 copy 0
M106 S84.15
;LAYER_CHANGE
;Z:0.4
;HEIGHT:0.2
;BEFORE_LAYER_CHANGE
G92 E0.0
;0.4


G1 E-1 F2100
G1 Z.6 F1800
;AFTER_LAYER_CHANGE
;0.4
; printing object p1.stl id:0 copy 0
G1 X148.164 Y119.572 F24000
G1 Z.4 F1800
G1 E1 F2100
M204 S1500
;TYPE:Perimeter
;WIDTH:0.449999
G1 F11054.364
G1 X146.389 Y122.072 E.10378
G1 X144.344 Y124.358 E.10382
G1 X142.056 Y126.401 E.10383
G1 X139.554 Y128.176 E.10384
G1 X136.869 Y129.659 E.10383
G1 X134.068 Y130.819 E.10262
G1 X131.087 Y131.681 E.10504
G1 X128.063 Y132.195 E.10383
G1 X125 Y132.367 E.10384
G1 X121.937 Y132.195 E.10384
G1 X118.912 Y131.681 E.10386
G1 X115.94 Y130.823 E.10471
G1 X113.129 Y129.658 E.103
G1 X110.444 Y128.175 E.10383
G1 X107.941 Y126.399 E.10388
G1 X105.653 Y124.355 E.10385
G1 X103.608 Y122.068 E.10385
G1 X101.832 Y119.566 E.10386
G1 X100.347 Y116.881 E.10386
