; generated by PrusaSlicer 2.6.0-alpha6+win64 on 2024-11-13 at 11:03:51 UTC


;
;
; 

; external perimeters extrusion width = 0.45mm
; perimeters extrusion width = 0.45mm
; infill extrusion width = 0.45mm
; solid infill extrusion width = 0.68mm
; top infill extrusion width = 0.40mm
; first layer extrusion width = 0.68mm

M73 P0 R57
M73 Q0 S73
M201 X2000 Y2000 Z200 E5000 ; sets maximum accelerations, mm/sec^2
M203 X200 Y200 Z40 E300 ; sets maximum feedrates, mm / sec
M204 S2000 T2000 ; sets acceleration (S) and retract acceleration (R), mm/sec^2
M205 X8.00 Y8.00 Z0.40 E4.50 ; sets the jerk limits, mm/sec
M205 S0 T0 ; sets the minimum extruding and travel feed rate, mm/sec
;TYPE:Custom
M862.3 P "MK3S" ; printer model check
M862.1 P0.4 ; nozzle diameter check
M115 U3.12.2 ; tell printer latest fw version
G90 ; use absolute coordinates
M83 ; extruder relative mode
M104 S215 ; set extruder temp
M140 S60 ; set bed temp
M190 S60 ; wait for bed temp
M109 S215 ; wait for extruder temp
G1 E-2 F2000 ; // prevent oozing during G28
G28 W ; home all without mesh bed level
G80 ; mesh bed leveling

G1 Z0.2 F720
G1 Y-3 F1000 ; go outside print area
G92 E0
G1 X60 E9 F1000 ; intro line
G1 X100 E12.5 F1000 ; intro line

G92 E0
M221 S95

; Don't change E values below. Excessive value can damage the printer.

G21 ; set units to millimeters
G90 ; use absolute coordinates
M83 ; use relative distances for extrusion
M900 K0.05 ; Filament gcode LA 1.5
M900 K30 ; Filament gcode LA 1.0
M107
;LAYER_CHANGE
;Z:0.2
;HEIGHT:0.2
;BEFORE_LAYER_CHANGE
G92 E0.0
;0.2


G1 E-1 F2100
G1 Z.4 F1800
;AFTER_LAYER_CHANGE
;0.2
; printing object p1_t.stl id:0 copy 0
G1 X150.948 Y98.249 F24000
G1 Z.2 F1800
G1 E1 F2100
M204 S2000
;TYPE:Perimeter
;WIDTH:0.693259
G1 F4386
G1 X151.046 Y98.686 E.02422
;WIDTH:0.696402
G1 X151.537 Y101.169 E.13753
G1 X151.612 Y101.864 E.03798
;WIDTH:0.699291
G1 X151.8 Y104.255 E.1309
G1 X151.792 Y105.085 E.0453
;WIDTH:0.70172
G1 X151.712 Y107.276 E.1201
G1 X151.585 Y108.304 E.05674
;WIDTH:0.703688
G1 X151.278 Y110.306 E.11128
G1 X151.031 Y111.329 E.05782
;WIDTH:0.665071
G1 X150.993 Y111.476 E.00785
;WIDTH:0.70555
G1 X150.501 Y113.265 E.10223
G1 X150.069 Y114.438 E.06887
;WIDTH:0.663536
G1 X150.015 Y114.58 E.00784
;WIDTH:0.70585
G1 X149.393 Y116.117 E.0914
G1 X148.752 Y117.384 E.07827
;WIDTH:0.662725
G1 X148.681 Y117.518 E.00782
;WIDTH:0.705944
G1 X147.948 Y118.857 E.08416
G1 X147.091 Y120.149 E.08547
;WIDTH:0.662886
G1 X147.005 Y120.274 E.00782
;WIDTH:0.706092
G1 X146.216 Y121.385 E.07514
G1 X145.093 Y122.715 E.09599
;WIDTH:0.664212
G1 X144.993 Y122.829 E.00783
;WIDTH:0.70475
G1 X144.211 Y123.697 E.06429
G1 X142.817 Y125.004 E.10516
;WIDTH:0.665511
G1 X142.705 Y125.106 E.00784
;WIDTH:0.703103
G1 X141.955 Y125.766 E.05484
G1 X140.284 Y127.003 E.11413
;WIDTH:0.667477
G1 X140.16 Y127.092 E.00793
;WIDTH:0.700985
G1 X139.478 Y127.564 E.04538
G1 X137.53 Y128.683 E.12293
;WIDTH:0.670026
G1 X137.397 Y128.757 E.00794
;WIDTH:0.698455
G1 X136.813 Y129.068 E.03607
G1 X134.592 Y130.022 E.13176
;WIDTH:0.670416
G1 X134.565 Y130.034 E.00154
;WIDTH:0.695495
G1 X133.993 Y130.259 E.03335
G1 X131.493 Y131.005 E.14157
;WIDTH:0.691204
G1 X131.056 Y131.122 E.02439
G1 X128.318 Y131.602 E.14984
;WIDTH:0.686764
G1 X128.058 Y131.643 E.01409
G1 X125.095 Y131.815 E.15889
;WIDTH:0.681917
G1 X124.909 Y131.815 E.00988
;WIDTH:0.686764
G1 X121.961 Y131.644 E.15809
G1 X121.694 Y131.604 E.01445
;WIDTH:0.691204
G1 X118.944 Y131.122 E.1505
G1 X118.507 Y131.004 E.0244
;WIDTH:0.695431
G1 X116.007 Y130.259 E.14154
G1 X115.409 Y130.022 E.0349
;WIDTH:0.698429
G1 X113.187 Y129.068 E.1318
G1 X112.47 Y128.683 E.04436
;WIDTH:0.70098
G1 X110.522 Y127.564 E.12293
G1 X109.716 Y127.003 E.05373
;WIDTH:0.703092
G1 X108.044 Y125.765 E.1142
G1 X107.181 Y125.002 E.06323
;WIDTH:0.704737
G1 X105.788 Y123.697 E.10504
G1 X105.005 Y122.826 E.06445
;WIDTH:0.664102
G1 X104.905 Y122.712 E.00783
;WIDTH:0.705966
G1 X103.783 Y121.384 E.09585
G1 X102.996 Y120.275 E.07497
;WIDTH:0.662923
G1 X102.91 Y120.15 E.00782
;WIDTH:0.705969
G1 X102.054 Y118.859 E.0854
G1 X101.319 Y117.518 E.08431
;WIDTH:0.662711
G1 X101.248 Y117.384 E.00782
;WIDTH:0.705844
G1 X100.608 Y116.119 E.07815
G1 X99.984 Y114.578 E.09164
;WIDTH:0.663498
G1 X99.93 Y114.436 E.00784
;WIDTH:0.705381
G1 X99.499 Y113.266 E.06868
G1 X99.008 Y111.481 E.10198
;WIDTH:0.664922
G1 X98.97 Y111.334 E.00785
;WIDTH:0.70369
G1 X98.722 Y110.305 E.05816
G1 X98.415 Y108.306 E.11112
;WIDTH:0.666704
G1 X98.394 Y108.156 E.00786
;WIDTH:0.701731
G1 X98.288 Y107.275 E.04861
G1 X98.208 Y105.085 E.12005
;WIDTH:0.669023
G1 X98.204 Y104.933 E.00792
;WIDTH:0.699271
G1 X98.201 Y104.215 E.03919
G1 X98.388 Y101.861 E.12888
;WIDTH:0.672089
G1 X98.403 Y101.71 E.00794
;WIDTH:0.696416
G1 X98.464 Y101.166 E.02975
G1 X98.955 Y98.682 E.13759
;WIDTH:0.67252
G1 X98.96 Y98.658 E.00128
;WIDTH:0.693002
G1 X99.072 Y98.166 E.02728
G1 X99.905 Y95.575 E.14712
;WIDTH:0.68831
G1 X100.01 Y95.271 E.01726
G1 X101.216 Y92.621 E.15624
;WIDTH:0.683532
G1 X101.3 Y92.452 E.01005
;WIDTH:0.685171
G1 X102.853 Y89.878 E.16054
G1 X102.981 Y89.704 E.01154
;WIDTH:0.690393
G1 X104.723 Y87.454 E.1532
G1 X105.005 Y87.149 E.02236
;WIDTH:0.694189
G1 X106.856 Y85.258 E.1433
G1 X107.301 Y84.877 E.03172
;WIDTH:0.697256
G1 X109.226 Y83.32 E.13471
G1 X109.838 Y82.907 E.04017
;WIDTH:0.701097
G1 X111.8 Y81.665 E.12708
G1 X112.639 Y81.231 E.0517
;WIDTH:0.702406
G1 X114.546 Y80.313 E.11606
G1 X115.572 Y79.925 E.06015
;WIDTH:0.704607
G1 X117.43 Y79.283 E.10816
G1 X118.528 Y79.005 E.06232
;WIDTH:0.664338
G1 X118.676 Y78.97 E.00786
;WIDTH:0.705483
G1 X120.41 Y78.589 E.09781
G1 X121.703 Y78.417 E.07186
;WIDTH:0.663183
G1 X121.854 Y78.399 E.00784
;WIDTH:0.705897
G1 X123.451 Y78.238 E.08848
G1 X124.905 Y78.214 E.08017
;WIDTH:0.663089
G1 X125.057 Y78.214 E.00784
;WIDTH:0.706927
G1 X126.549 Y78.238 E.08239
G1 X128.167 Y78.402 E.08979
;WIDTH:0.663551
G1 X128.318 Y78.419 E.00784
;WIDTH:0.705281
G1 X129.59 Y78.588 E.07067
G1 X131.323 Y78.97 E.09774
;WIDTH:0.664352
G1 X131.471 Y79.005 E.00786
;WIDTH:0.704646
G1 X132.57 Y79.283 E.06237
G1 X134.429 Y79.925 E.10822
;WIDTH:0.666089
G1 X134.573 Y79.977 E.00793
;WIDTH:0.702463
G1 X135.454 Y80.313 E.05171
G1 X137.378 Y81.24 E.11712
;WIDTH:0.66826
G1 X137.515 Y81.308 E.00795
;WIDTH:0.700169
G1 X138.2 Y81.665 E.04221
G1 X140.146 Y82.897 E.12587
;WIDTH:0.671078
G1 X140.274 Y82.981 E.008
;WIDTH:0.697643
G1 X140.774 Y83.32 E.03289
G1 X142.716 Y84.892 E.13602
;WIDTH:0.672073
G1 X142.736 Y84.908 E.00134
;WIDTH:0.693799
G1 X143.143 Y85.257 E.02902
G1 X145.01 Y87.165 E.14447
;WIDTH:0.689784
G1 X145.278 Y87.454 E.0212
G1 X147.014 Y89.697 E.15256
;WIDTH:0.685166
G1 X147.138 Y89.862 E.01102
G1 X148.699 Y92.45 E.1614
;WIDTH:0.683521
G1 X148.784 Y92.62 E.01012
;WIDTH:0.688305
G1 X149.982 Y95.253 E.15524
G1 X150.089 Y95.558 E.01735
;WIDTH:0.693259
G1 X150.935 Y98.19 E.1495
G1 X151.574 Y98.103 F24000
;TYPE:External perimeter
;WIDTH:0.679999
G1 F4386
G1 X152.18 Y101.096 E.16177
G1 X152.447 Y104.274 E.16894
G1 X152.358 Y107.35 E.16301
G1 X151.912 Y110.454 E.16612
G1 X151.116 Y113.484 E.16596
G1 X149.979 Y116.405 E.16604
G1 X148.516 Y119.177 E.16604
G1 X146.744 Y121.769 E.16633
G1 X144.692 Y124.137 E.16599
G1 X142.381 Y126.258 E.16617
G1 X139.845 Y128.1 E.16604
G1 X137.116 Y129.642 E.16605
G1 X134.228 Y130.862 E.16608
G1 X131.22 Y131.746 E.16608
G1 X128.131 Y132.28 E.16606
G1 X125 Y132.459 E.16613
G1 X121.87 Y132.28 E.16608
G1 X118.78 Y131.746 E.16611
G1 X115.772 Y130.862 E.16608
G1 X112.885 Y129.642 E.16603
G1 X110.155 Y128.1 E.16609
G1 X107.618 Y126.257 E.16611
G1 X105.308 Y124.137 E.16609
G1 X103.255 Y121.768 E.16606
G1 X101.485 Y119.18 E.16609
G1 X100.022 Y116.407 E.16609
G1 X98.885 Y113.486 E.16604
G1 X98.088 Y110.453 E.16612
G1 X97.642 Y107.35 E.16607
G1 X97.552 Y104.216 E.16609
G1 X97.82 Y101.092 E.1661
G1 X98.443 Y98.019 E.1661
G1 X99.412 Y95.038 E.16605
G1 X100.714 Y92.186 E.16608
G1 X102.333 Y89.501 E.16609
G1 X104.248 Y87.018 E.16611
G1 X106.433 Y84.77 E.16607
G1 X108.86 Y82.785 E.16609
G1 X111.497 Y81.09 E.16606
G1 X114.311 Y79.707 E.1661
G1 X117.264 Y78.653 E.1661
G1 X120.318 Y77.943 E.16609
G1 X123.433 Y77.586 E.16609
G1 X126.568 Y77.586 E.16607
G1 X129.682 Y77.943 E.16604
G1 X132.736 Y78.653 E.16609
G1 X135.69 Y79.707 E.16615
G1 X138.503 Y81.09 E.16605
G1 X141.14 Y82.785 E.16606
G1 X143.566 Y84.769 E.16602
G1 X145.753 Y87.019 E.16622
G1 X147.667 Y89.501 E.16603
G1 X149.286 Y92.186 E.16609
G1 X150.588 Y95.037 E.16603
G1 X151.562 Y98.044 E.16744
G1 X151.289 Y98.384 F24000
G1 E-1 F2100
G1 Z.6 F1800
G1 X101.811 Y92.855 F24000
G1 Z.2 F1800
G1 E1 F2100
;TYPE:Perimeter
;WIDTH:0.683533
G1 F4386
G1 X101.849 Y92.781 E.00443
;WIDTH:0.685171
G1 X103.489 Y90.086 E.16848
;WIDTH:0.690393
G1 X105.234 Y87.851 E.15266
G1 X105.455 Y87.593 E.01829
;WIDTH:0.694189
G1 X107.32 Y85.716 E.14329
G1 X107.694 Y85.368 E.02766
;WIDTH:0.697256
G1 X109.634 Y83.831 E.13466
G1 X110.074 Y83.503 E.02986
;WIDTH:0.671639
G1 X110.169 Y83.439 E.00599
;WIDTH:0.701097
G1 X112.148 Y82.224 E.12709
G1 X112.803 Y81.847 E.04136
;WIDTH:0.668371
G1 X112.904 Y81.795 E.00591
;WIDTH:0.702406
G1 X114.827 Y80.91 E.11608
G1 X115.661 Y80.555 E.0497
;WIDTH:0.666052
G1 X115.769 Y80.515 E.00597
;WIDTH:0.704607
G1 X117.639 Y79.911 E.10812
G1 X118.691 Y79.604 E.06029
;WIDTH:0.664338
G1 X118.802 Y79.577 E.0059
;WIDTH:0.705483
G1 X120.545 Y79.237 E.09784
G1 X121.795 Y79.03 E.0698
;WIDTH:0.663183
G1 X121.908 Y79.016 E.00587
;WIDTH:0.705897
G1 X123.509 Y78.898 E.0885
G1 X124.924 Y78.834 E.07808
;WIDTH:0.663089
G1 X125.038 Y78.834 E.00588
;WIDTH:0.706927
G1 X126.491 Y78.899 E.0803
G1 X128.113 Y79.019 E.0898
;WIDTH:0.663551
G1 X128.226 Y79.033 E.00588
;WIDTH:0.705281
G1 X129.455 Y79.237 E.06861
G1 X131.197 Y79.577 E.09775
;WIDTH:0.664352
G1 X131.308 Y79.604 E.0059
;WIDTH:0.704646
G1 X132.361 Y79.911 E.06035
G1 X134.232 Y80.515 E.10818
;WIDTH:0.702463
G1 X135.173 Y80.91 E.05597
G1 X137.113 Y81.803 E.11712
;WIDTH:0.700169
G1 X137.852 Y82.222 E.04643
G1 X139.815 Y83.428 E.12591
;WIDTH:0.697643
G1 X140.365 Y83.831 E.03712
G1 X142.323 Y85.383 E.13602
;WIDTH:0.693799
G1 X142.679 Y85.714 E.02631
G1 X144.559 Y87.609 E.14447
;WIDTH:0.689784
G1 X144.767 Y87.851 E.01716
G1 X146.516 Y90.093 E.15294
;WIDTH:0.685166
G1 X148.151 Y92.782 E.16806
;WIDTH:0.68352
G1 X148.203 Y92.884 E.0061
;WIDTH:0.688305
G1 X149.49 Y95.765 E.16933
;WIDTH:0.693259
G1 X150.307 Y98.36 E.14712
G1 X150.428 Y98.805 E.02494
;WIDTH:0.696402
G1 X150.975 Y101.796 E.16522
;WIDTH:0.672134
G1 X150.987 Y101.91 E.006
;WIDTH:0.699291
G1 X151.144 Y104.266 E.12887
G1 X151.17 Y104.943 E.03698
;WIDTH:0.669147
G1 X151.169 Y105.057 E.00594
;WIDTH:0.70172
G1 X151.054 Y107.247 E.12013
G1 X150.986 Y108.09 E.04633
;WIDTH:0.666784
G1 X150.971 Y108.204 E.00596
;WIDTH:0.703688
G1 X150.626 Y110.199 E.11124
G1 X150.424 Y111.194 E.05578
;WIDTH:0.665071
G1 X150.396 Y111.305 E.00592
;WIDTH:0.70555
G1 X149.865 Y113.082 E.10219
G1 X149.484 Y114.233 E.0668
;WIDTH:0.663536
G1 X149.443 Y114.341 E.00596
;WIDTH:0.70585
G1 X148.782 Y115.861 E.09137
G1 X148.195 Y117.113 E.07622
;WIDTH:0.662725
G1 X148.142 Y117.214 E.00588
;WIDTH:0.705944
G1 X147.391 Y118.498 E.08201
G1 X146.57 Y119.813 E.08547
;WIDTH:0.662886
G1 X146.505 Y119.908 E.00593
;WIDTH:0.706092
G1 X145.705 Y120.964 E.07305
G1 X144.614 Y122.32 E.09597
;WIDTH:0.664212
G1 X144.538 Y122.406 E.00593
;WIDTH:0.70475
G1 X143.754 Y123.219 E.06215
G1 X142.388 Y124.555 E.10515
;WIDTH:0.703103
G1 X141.557 Y125.239 E.05908
G1 X139.909 Y126.506 E.11411
;WIDTH:0.700985
G1 X139.146 Y126.996 E.04962
G1 X137.215 Y128.144 E.12292
;WIDTH:0.698455
G1 X136.551 Y128.468 E.04027
G1 X134.341 Y129.447 E.13175
;WIDTH:0.695495
G1 X133.804 Y129.635 E.03087
G1 X131.31 Y130.4 E.14155
;WIDTH:0.691204
G1 X130.942 Y130.484 E.02035
G1 X128.207 Y130.977 E.14981
;WIDTH:0.686764
G1 X125.055 Y131.177 E.16908
;WIDTH:0.681917
G1 X124.942 Y131.177 E.006
;WIDTH:0.686764
G1 X121.793 Y130.977 E.16892
;WIDTH:0.691204
G1 X119.058 Y130.484 E.14981
G1 X118.69 Y130.4 E.02035
;WIDTH:0.695431
G1 X116.196 Y129.635 E.14154
G1 X115.68 Y129.456 E.02963
;WIDTH:0.670395
G1 X115.66 Y129.447 E.00114
;WIDTH:0.698429
G1 X113.45 Y128.468 E.13175
G1 X112.886 Y128.198 E.03408
;WIDTH:0.670002
G1 X112.786 Y128.144 E.00593
;WIDTH:0.70098
G1 X110.854 Y126.996 E.12297
G1 X110.184 Y126.572 E.04339
;WIDTH:0.667435
G1 X110.091 Y126.506 E.00592
;WIDTH:0.703092
G1 X108.442 Y125.238 E.11419
G1 X107.696 Y124.63 E.05283
;WIDTH:0.665464
G1 X107.611 Y124.554 E.0059
;WIDTH:0.704737
G1 X106.246 Y123.219 E.10507
G1 X105.459 Y122.403 E.06239
;WIDTH:0.664102
G1 X105.383 Y122.317 E.00593
;WIDTH:0.705966
G1 X104.294 Y120.963 E.0958
G1 X103.496 Y119.909 E.07289
;WIDTH:0.662923
G1 X103.431 Y119.815 E.00589
;WIDTH:0.705969
G1 X102.611 Y118.501 E.08539
G1 X101.858 Y117.213 E.08226
;WIDTH:0.662711
G1 X101.805 Y117.112 E.00588
;WIDTH:0.705844
G1 X101.219 Y115.863 E.07605
G1 X100.556 Y114.338 E.09166
;WIDTH:0.663498
G1 X100.515 Y114.231 E.00591
;WIDTH:0.705381
G1 X100.136 Y113.083 E.06659
G1 X99.605 Y111.31 E.10195
;WIDTH:0.664922
G1 X99.577 Y111.199 E.00592
;WIDTH:0.70369
G1 X99.374 Y110.199 E.05606
G1 X99.029 Y108.206 E.11113
;WIDTH:0.701731
G1 X98.946 Y107.246 E.05279
G1 X98.831 Y105.057 E.12008
;WIDTH:0.699271
G1 X98.856 Y104.263 E.04335
G1 X99.013 Y101.907 E.12887
;WIDTH:0.696416
G1 X99.105 Y101.289 E.03395
G1 X99.573 Y98.801 E.13756
;WIDTH:0.693002
G1 X99.692 Y98.363 E.02453
G1 X100.509 Y95.767 E.14711
;WIDTH:0.68831
G1 X101.785 Y92.909 E.16796
G1 X102.373 Y93.156 F24000
;TYPE:External perimeter
;WIDTH:0.679999
G1 F4386
G1 X103.99 Y90.479 E.16567
G1 X105.878 Y88.07 E.16213
G1 X108.055 Y85.891 E.16317
G1 X110.496 Y83.979 E.16425
G1 X113.163 Y82.37 E.165
G1 X115.956 Y81.115 E.1622
G1 X118.916 Y80.196 E.16418
G1 X121.946 Y79.644 E.16315
G1 X125 Y79.461 E.16207
G1 X128.075 Y79.647 E.16319
G1 X131.121 Y80.205 E.16404
G1 X134.045 Y81.116 E.16224
G1 X136.854 Y82.378 E.16313
G1 X139.489 Y83.968 E.16303
G1 X139.966 Y84.339 E.03201
G1 X141.932 Y85.881 E.13236
G1 X144.114 Y88.061 E.16339
G1 X146.012 Y90.482 E.16296
G1 X147.604 Y93.112 E.16286
G1 X148.884 Y95.954 E.16512
G1 X149.796 Y98.882 E.16246
G1 X150.352 Y101.91 E.16308
G1 X150.54 Y105.019 E.16499
G1 X150.352 Y108.09 E.16299
G1 X149.796 Y111.118 E.16308
G1 X148.884 Y114.046 E.16246
G1 X147.622 Y116.855 E.16313
G1 X146.01 Y119.52 E.16499
G1 X144.119 Y121.932 E.16236
G1 X141.943 Y124.11 E.16309
G1 X139.52 Y126.01 E.16311
G1 X136.888 Y127.604 E.163
G1 X134.081 Y128.87 E.16312
G1 X133.612 Y129.019 E.02607
G1 X131.121 Y129.795 E.13821
G1 X128.089 Y130.352 E.1633
G1 X125.018 Y130.54 E.16299
G1 X121.946 Y130.356 E.16303
G1 X118.878 Y129.795 E.16522
G1 X115.956 Y128.885 E.16212
G1 X113.146 Y127.622 E.1632
G1 X110.511 Y126.032 E.16303
G1 X108.084 Y124.134 E.16321
G1 X105.878 Y121.93 E.16519
G1 X103.99 Y119.521 E.16213
G1 X102.396 Y116.888 E.16305
G1 X101.115 Y114.044 E.16523
G1 X100.205 Y111.123 E.16207
G1 X99.648 Y108.093 E.1632
G1 X99.46 Y105.019 E.16314
G1 X99.501 Y104.302 E.03804
G1 X99.644 Y101.945 E.12509
G1 X100.196 Y98.915 E.16315
G1 X101.117 Y95.952 E.16437
G1 X102.349 Y93.211 E.15919
G1 X102.159 Y92.818 F24000
; stop printing object p1_t.stl id:0 copy 0
M106 S84.15
;LAYER_CHANGE
;Z:0.4
;HEIGHT:0.2
;BEFORE_LAYER_CHANGE
G92 E0.0
;0.4


G1 E-1 F2100
G1 Z.6 F1800
;AFTER_LAYER_CHANGE
;0.4
; printing object p1_t.stl id:0 copy 0
G1 X151.477 Y98.099 F24000
G1 Z.4 F1800
G1 E1 F2100
M204 S1500
;TYPE:Perimeter
;WIDTH:0.449999
G1 F11054.364
G1 X152.092 Y101.132 E.10475
G1 X152.355 Y104.286 E.10713
G1 X152.266 Y107.349 E.10372
G1 X151.822 Y110.433 E.10547
G1 X151.031 Y113.446 E.10544
G1 X149.902 Y116.351 E.1055
G1 X148.449 Y119.108 E.10549
G1 X146.663 Y121.723 E.10719
G1 X144.621 Y124.078 E.10551
G1 X142.324 Y126.185 E.10551
G1 X139.802 Y128.019 E.10555
G1 X137.086 Y129.553 E.10558
G1 X134.182 Y130.78 E.10671
G1 X131.189 Y131.658 E.10558
G1 X128.115 Y132.189 E.10559
G1 X125 Y132.367 E.10561
G1 X121.885 Y132.189 E.10561
G1 X118.809 Y131.657 E.10566
G1 X115.814 Y130.779 E.10564
G1 X112.918 Y129.556 E.10641
G1 X110.201 Y128.02 E.10565
G1 X107.676 Y126.186 E.10563
G1 X105.376 Y124.075 E.10567
