; generated by PrusaSlicer 2.6.0-alpha6+win64 on 2024-11-12 at 11:23:57 UTC


;
;
; 

; external perimeters extrusion width = 0.45mm
; perimeters extrusion width = 0.45mm
; infill extrusion width = 0.45mm
; solid infill extrusion width = 0.68mm
; top infill extrusion width = 0.40mm
; first layer extrusion width = 0.68mm

M73 P0 R61
M73 Q0 S76
M201 X2000 Y2000 Z200 E5000 ; sets maximum accelerations, mm/sec^2
M203 X200 Y200 Z40 E300 ; sets maximum feedrates, mm / sec
M204 S2000 T2000 ; sets acceleration (S) and retract acceleration (R), mm/sec^2
M205 X8.00 Y8.00 Z0.40 E4.50 ; sets the jerk limits, mm/sec
M205 S0 T0 ; sets the minimum extruding and travel feed rate, mm/sec
;TYPE:Custom
M862.3 P "MK3S" ; printer model check
M862.1 P0.4 ; nozzle diameter check
M115 U3.12.2 ; tell printer latest fw version
G90 ; use absolute coordinates
M83 ; extruder relative mode
M104 S215 ; set extruder temp
M140 S60 ; set bed temp
M190 S60 ; wait for bed temp
M109 S215 ; wait for extruder temp
G1 E-2 F2000 ; // prevent oozing during G28
G28 W ; home all without mesh bed level
G80 ; mesh bed leveling

G1 Z0.2 F720
G1 Y-3 F1000 ; go outside print area
G92 E0
G1 X60 E9 F1000 ; intro line
G1 X100 E12.5 F1000 ; intro line

G92 E0
M221 S95

; Don't change E values below. Excessive value can damage the printer.

G21 ; set units to millimeters
G90 ; use absolute coordinates
M83 ; use relative distances for extrusion
M900 K0.05 ; Filament gcode LA 1.5
M900 K30 ; Filament gcode LA 1.0
M107
;LAYER_CHANGE
;Z:0.2
;HEIGHT:0.2
;BEFORE_LAYER_CHANGE
G92 E0.0
;0.2


G1 E-1 F2100
M73 Q0 S75
G1 Z.4 F1800
;AFTER_LAYER_CHANGE
;0.2
; printing object p2.stl id:0 copy 0
G1 X97.168 Y107.81 F24000
G1 Z.2 F1800
G1 E1 F2100
M204 S2000
;TYPE:External perimeter
;WIDTH:0.38292
G1 F900
G1 X97.168 Y104.568 E.09165
G1 X97.168 Y107.75 E.08996
G1 X97.514 Y107.61 F24000
; stop printing object p2.stl id:0 copy 0
M106 S84.15
;LAYER_CHANGE
;Z:0.4
;HEIGHT:0.2
;BEFORE_LAYER_CHANGE
G92 E0.0
;0.4


G1 E-1 F2100
G1 Z.6 F1800
;AFTER_LAYER_CHANGE
;0.4
; printing object p2.stl id:0 copy 0
G1 X97.597 Y101.357 F24000
G1 Z.4 F1800
G1 E1 F2100
;TYPE:Overhang perimeter
;WIDTH:0.42821
G1 F600
G1 X97.57 Y101.823 E.01495
;WIDTH:0.473499
G1 X97.543 Y102.289 E.01671
;WIDTH:0.518788
G1 X97.516 Y102.755 E.01847
G1 F674.623
;WIDTH:0.564077
G1 F716.805
G1 X97.489 Y103.221 E.02023
G1 F774.527
M204 S800
;TYPE:External perimeter
;WIDTH:0.604126
G1 F802.732
G1 X97.469 Y103.561 E.01589
G1 F842.103
;WIDTH:0.644174
G1 F864.354
G1 X97.449 Y103.901 E.01703
G1 F900
;WIDTH:0.684222
G1 X97.429 Y104.242 E.01821
;WIDTH:0.72427
G1 X97.41 Y104.582 E.01929
G1 X97.41 Y107.796 E.18209
G1 X97.436 Y108.25 E.02576
;WIDTH:0.676949
G1 F892.318
G1 X97.462 Y108.703 E.02392
;WIDTH:0.629627
G1 F818.822
G1 X97.489 Y109.157 E.02219
M204 S2000
;TYPE:Overhang perimeter
;WIDTH:0.582305
G1 F731.931
G1 X97.516 Y109.623 E.02094
;WIDTH:0.532459
G1 F600
G1 X97.543 Y110.089 E.019
;WIDTH:0.482613
G1 X97.57 Y110.555 E.01707
;WIDTH:0.432767
G1 X97.597 Y111.021 E.01513
; stop printing object p2.stl id:0 copy 0
M106 S170.85
;LAYER_CHANGE
;Z:0.6
;HEIGHT:0.2
;BEFORE_LAYER_CHANGE
G92 E0.0
;0.6


G1 E-1 F2100
G1 Z.8 F1800
;AFTER_LAYER_CHANGE
;0.6
; printing object p2.stl id:0 copy 0
M73 P0 R60
G1 X97.36 Y107.799 F24000
G1 Z.6 F1800
G1 E1 F2100
M204 S800
;TYPE:External perimeter
;WIDTH:0.625013
G1 F900
G1 X97.36 Y104.596 E.15503
G1 X97.432 Y103.766 E.04032
;WIDTH:0.578468
G1 X97.501 Y102.969 E.03562
;WIDTH:0.531922
G1 X97.571 Y102.173 E.03249
;WIDTH:0.485376
G1 X97.64 Y101.376 E.02943
;WIDTH:0.43883
G1 X97.772 Y100.821 E.01878
G1 F653.092
G1 X97.972 Y99.973 E.02868
M204 S2000
;TYPE:Overhang perimeter
G1 F600
G1 X98.035 Y99.706 E.00903
G1 X98.035 Y101.399 E.05573
;WIDTH:0.478154
G1 X98.014 Y102.125 E.02628
;WIDTH:0.517478
G1 F638.166
G1 X97.993 Y102.851 E.02866
G1 F687.189
;WIDTH:0.556801
G1 F723.406
G1 X97.972 Y103.577 E.03103
G1 F768.966
M204 S800
;TYPE:External perimeter
;WIDTH:0.590907
G1 F793.844
G1 X97.957 Y104.087 E.02325
G1 F823.964
;WIDTH:0.625013
G1 F844.484
G1 X97.942 Y104.596 E.02465
G1 F872.963
G1 X97.942 Y107.782 E.15421
G1 F844.484
G1 X97.957 Y108.291 E.02465
;WIDTH:0.596277
G1 F797.502
G1 X97.972 Y108.801 E.02348
M204 S2000
;TYPE:Overhang perimeter
;WIDTH:0.56754
G1 F732.424
G1 X97.993 Y109.527 E.03168
;WIDTH:0.524637
G1 F645.833
G1 X98.014 Y110.252 E.02905
;WIDTH:0.481734
G1 F600
G1 X98.035 Y110.978 E.0265
;WIDTH:0.43883
G1 X98.035 Y112.672 E.05577
G1 X97.972 Y112.404 E.00906
G1 F653.092
M204 S800
;TYPE:External perimeter
G1 X97.772 Y111.557 E.02865
G1 F900
G1 X97.64 Y111.001 E.01881
;WIDTH:0.485376
G1 X97.571 Y110.205 E.02939
;WIDTH:0.531922
G1 X97.501 Y109.409 E.03249
;WIDTH:0.578468
G1 X97.432 Y108.612 E.03562
;WIDTH:0.625013
G1 X97.366 Y107.859 E.03659
M204 S2000
; stop printing object p2.stl id:0 copy 0
M106 S255
;LAYER_CHANGE
;Z:0.8
;HEIGHT:0.2
;BEFORE_LAYER_CHANGE
G92 E0.0
;0.8


G1 E-1 F2100
G1 Z1 F1800
;AFTER_LAYER_CHANGE
;0.8
; printing object p2.stl id:0 copy 0
G1 X97.684 Y107.78 F24000
G1 Z.8 F1800
G1 E1 F2100
M204 S1500
;TYPE:Perimeter
;WIDTH:0.459356
G1 F900
G1 X97.684 Y104.61 E.10977
G1 X97.758 Y103.756 E.02968
;WIDTH:0.410867
G1 X97.831 Y102.926 E.02549
;WIDTH:0.407869
G1 X97.861 Y102.863 E.00212
;WIDTH:0.453359
G1 X97.891 Y102.8 E.00238
;WIDTH:0.498849
G1 X97.922 Y102.736 E.0027
;WIDTH:0.54434
G1 X97.952 Y102.673 E.00291
;WIDTH:0.58983
G1 X97.982 Y102.609 E.00321
;WIDTH:0.63532
G1 X98.013 Y102.546 E.00346
G1 X98.035 Y102.612 E.00343
;WIDTH:0.58983
G1 X98.058 Y102.679 E.00322
;WIDTH:0.54434
G1 X98.081 Y102.745 E.00291
;WIDTH:0.498849
G1 X98.104 Y102.812 E.00269
;WIDTH:0.453359
G1 X98.126 Y102.878 E.00237
;WIDTH:0.407869
G1 X98.149 Y102.945 E.00215
;WIDTH:0.410867
G1 X98.125 Y103.778 E.0255
;WIDTH:0.459356
G1 X98.101 Y104.61 E.02882
G1 X98.101 Y107.768 E.10935
G1 X98.125 Y108.6 E.02882
;WIDTH:0.410868
G1 X98.149 Y109.433 E.0255
;WIDTH:0.40787
G1 X98.126 Y109.499 E.00212
;WIDTH:0.45336
G1 X98.104 Y109.566 E.00241
;WIDTH:0.498851
G1 X98.081 Y109.632 E.00265
;WIDTH:0.544341
G1 X98.058 Y109.699 E.00295
;WIDTH:0.589832
G1 X98.035 Y109.766 E.00322
;WIDTH:0.635322
G1 X98.013 Y109.832 E.00343
G1 X97.982 Y109.769 E.00346
;WIDTH:0.589832
G1 X97.952 Y109.705 E.00321
;WIDTH:0.544341
G1 X97.922 Y109.642 E.00291
;WIDTH:0.498851
G1 X97.891 Y109.578 E.0027
;WIDTH:0.45336
G1 X97.861 Y109.515 E.00238
;WIDTH:0.40787
G1 X97.831 Y109.451 E.00214
;WIDTH:0.410868
G1 X97.758 Y108.622 E.02546
;WIDTH:0.459356
G1 X97.69 Y107.84 E.02718
M204 S2000
G1 X97.272 Y107.804 F24000
M204 S800
;TYPE:External perimeter
;WIDTH:0.449999
G1 F900
G1 X97.272 Y104.574 E.10933
G1 X97.647 Y101.366 E.10933
G1 X98.254 Y98.804 E.08912
G1 F834.92
G1 X98.391 Y98.227 E.02007
G1 F666.666
G1 X98.454 Y98.053 E.00626
M204 S2000
;TYPE:Overhang perimeter
G1 F600
G1 X98.512 Y97.893 E.00576
G1 X98.512 Y98.831 E.03175
G1 X98.512 Y113.547 E.49812
G1 X98.512 Y114.485 E.03175
G1 X98.454 Y114.326 E.00573
G1 F666.666
M204 S800
;TYPE:External perimeter
G1 X98.392 Y114.155 E.00616
G1 F832.719
G1 X98.254 Y113.574 E.02021
G1 F900
G1 X97.647 Y111.012 E.08912
G1 X97.279 Y107.863 E.10732
M204 S2000
G1 X97.607 Y107.584 F24000
G1 E-1 F2100
G1 Z1.2 F1800
G1 X98.013 Y102.546 F24000
G1 Z.8 F1800
G1 E1 F2100
M204 S1500
;TYPE:Perimeter
;WIDTH:0.63532
G1 F900
G1 X98.034 Y102.178 E.01816
;WIDTH:0.592451
G1 X98.055 Y101.81 E.01684
;WIDTH:0.549582
G1 X98.077 Y101.442 E.01553
M204 S2000
G1 E-1 F2100
G1 Z1.2 F1800
G1 X98.077 Y110.936 F24000
G1 Z.8 F1800
G1 E1 F2100
M204 S1500
;WIDTH:0.549582
G1 F900
G1 X98.055 Y110.568 E.01553
;WIDTH:0.592452
G1 X98.034 Y110.2 E.01684
;WIDTH:0.635322
G1 X98.013 Y109.832 E.01816
M204 S2000
; stop printing object p2.stl id:0 copy 0
;LAYER_CHANGE
;Z:1
;HEIGHT:0.2
;BEFORE_LAYER_CHANGE
G92 E0.0
;1


G1 E-1 F2100
G1 Z1.2 F1800
;AFTER_LAYER_CHANGE
;1
; printing object p2.stl id:0 copy 0
G1 X97.805 Y107.773 F24000
G1 Z1 F1800
G1 E1 F2100
M204 S1500
;WIDTH:0.700778
G1 F900
G1 X97.805 Y104.624 E.17225
G1 X97.875 Y103.804 E.04502
;WIDTH:0.655054
G1 X97.944 Y103.021 E.04001
;WIDTH:0.60933
G1 X98.012 Y102.239 E.03697
;WIDTH:0.563606
G1 X98.081 Y101.456 E.03403
;WIDTH:0.517882
G1 X98.554 Y99.452 E.08132
G1 X98.554 Y101.484 E.08025
;WIDTH:0.563606
G1 X98.531 Y102.269 E.034
;WIDTH:0.60933
G1 X98.508 Y103.054 E.03699
;WIDTH:0.655054
G1 X98.486 Y103.839 E.03997
;WIDTH:0.700778
G1 X98.463 Y104.624 E.04296
G1 X98.463 Y107.754 E.17121
G1 X98.486 Y108.539 E.04296
;WIDTH:0.655054
G1 X98.508 Y109.324 E.03997
;WIDTH:0.60933
G1 X98.531 Y110.109 E.03699
;WIDTH:0.563606
G1 X98.554 Y110.894 E.034
;WIDTH:0.517882
G1 X98.554 Y112.926 E.08025
G1 X98.081 Y110.921 E.08136
;WIDTH:0.563606
G1 X98.012 Y110.139 E.03399
;WIDTH:0.60933
G1 X97.944 Y109.357 E.03697
;WIDTH:0.655054
G1 X97.875 Y108.574 E.04001
;WIDTH:0.700778
G1 X97.811 Y107.833 E.04068
M204 S2000
G1 X97.272 Y107.803 F24000
M204 S800
;TYPE:External perimeter
;WIDTH:0.449999
G1 F900
G1 X97.272 Y104.574 E.1093
G1 X97.647 Y101.366 E.10933
G1 X98.392 Y98.223 E.10933
G1 X98.737 Y97.275 E.03415
G1 F666.666
G1 X98.937 Y96.725 E.01981
M204 S2000
;TYPE:Overhang perimeter
G1 F600
G1 X98.995 Y96.566 E.00573
G1 X98.995 Y97.504 E.03175
G1 X98.995 Y114.874 E.58795
G1 X98.995 Y115.811 E.03172
G1 X98.937 Y115.652 E.00573
G1 F666.666
M204 S800
;TYPE:External perimeter
G1 X98.737 Y115.103 E.01978
G1 F900
G1 X98.392 Y114.155 E.03415
G1 X97.647 Y111.012 E.10933
G1 X97.279 Y107.863 E.10732
M204 S2000
G1 X97.607 Y107.583 F24000
; stop printing object p2.stl id:0 copy 0
;LAYER_CHANGE
;Z:1.2
;HEIGHT:0.2
;BEFORE_LAYER_CHANGE
G92 E0.0
;1.2


G1 E-1 F2100
G1 Z1.4 F1800
;AFTER_LAYER_CHANGE
;1.2
; printing object p2.stl id:0 copy 0
G1 X97.679 Y107.78 F24000
G1 Z1.2 F1800
G1 E1 F2100
M204 S1500
;TYPE:Perimeter
G1 F900
G1 X97.679 Y104.598 E.10771
G1 X98.049 Y101.437 E.10773
G1 X98.783 Y98.34 E.10773
G1 X99.071 Y97.549 E.02849
G1 X99.071 Y98.074 E.01777
G1 X99.071 Y114.304 E.54937
G1 X99.071 Y114.829 E.01777
G1 X98.783 Y114.038 E.02849
G1 X98.049 Y110.941 E.10773
G1 X97.686 Y107.84 E.10568
M204 S2000
G1 X97.272 Y107.803 F24000
M204 S800
;TYPE:External perimeter
G1 F900
G1 X97.272 Y104.574 E.1093
G1 X97.647 Y101.366 E.10933
G1 X98.392 Y98.223 E.10933
G1 X99.22 Y95.948 E.08195
G1 F666.666
G1 X99.42 Y95.399 E.01978
M204 S2000
;TYPE:Overhang perimeter
G1 F600
G1 X99.478 Y95.24 E.00573
G1 X99.478 Y96.178 E.03175
G1 X99.478 Y116.2 E.67772
G1 X99.478 Y117.138 E.03175
G1 X99.42 Y116.979 E.00573
G1 F666.666
M204 S800
;TYPE:External perimeter
G1 X99.22 Y116.43 E.01978
G1 F900
G1 X98.392 Y114.155 E.08195
G1 X97.647 Y111.012 E.10933
G1 X97.279 Y107.862 E.10735
M204 S2000
G1 X97.607 Y107.583 F24000
G1 E-1 F2100
G1 Z1.6 F1800
G1 X98.672 Y104.638 F24000
G1 Z1.2 F1800
G1 E1 F2100
;TYPE:Solid infill
;WIDTH:0.636891
G1 F900
G1 X98.695 Y103.86 E.03844
;WIDTH:0.591578
G1 X98.717 Y103.082 E.03551
;WIDTH:0.546265
G1 X98.74 Y102.304 E.03258
;WIDTH:0.500952
G1 X98.763 Y101.526 E.02964
;WIDTH:0.455639
G1 X98.763 Y100.424 E.03782
G1 X98.61 Y100.406 E.00529
G1 X98.351 Y101.502 E.03865
;WIDTH:0.500952
G1 X98.284 Y102.278 E.02966
;WIDTH:0.546265
G1 X98.216 Y103.053 E.03256
;WIDTH:0.591578
G1 X98.148 Y103.828 E.03549
;WIDTH:0.636891
G1 X98.078 Y104.638 E.04015
G1 X98.078 Y107.757 E.15404
G1 X98.148 Y108.549 E.03927
;WIDTH:0.591578
G1 X98.216 Y109.325 E.03554
;WIDTH:0.546265
G1 X98.284 Y110.1 E.03256
;WIDTH:0.500952
G1 X98.351 Y110.876 E.02966
;WIDTH:0.455639
G1 X98.61 Y111.972 E.03865
G1 X98.763 Y111.954 E.00529
G1 X98.763 Y110.852 E.03782
;WIDTH:0.500952
G1 X98.74 Y110.074 E.02964
;WIDTH:0.546265
G1 X98.717 Y109.296 E.03258
;WIDTH:0.591578
G1 X98.695 Y108.518 E.03551
;WIDTH:0.636891
G1 X98.672 Y107.74 E.03844
G1 X98.672 Y104.698 E.15024
; stop printing object p2.stl id:0 copy 0
;LAYER_CHANGE
;Z:1.4
;HEIGHT:0.2
;BEFORE_LAYER_CHANGE
G92 E0.0
;1.4


G1 E-1 F2100
G1 Z1.6 F1800
;AFTER_LAYER_CHANGE
;1.4
; printing object p2.stl id:0 copy 0
G1 X97.679 Y107.78 F24000
G1 Z1.4 F1800
G1 E1 F2100
M204 S1500
;TYPE:Perimeter
;WIDTH:0.449999
G1 F900
G1 X97.679 Y104.598 E.10771
G1 X98.049 Y101.437 E.10773
G1 X98.783 Y98.34 E.10773
G1 X99.554 Y96.222 E.07629
G1 X99.554 Y96.748 E.0178
G1 X99.554 Y102.611 E.19846
G1 X99.554 Y103.137 E.0178
G1 X99.369 Y106.155 E.10235
G1 X99.554 Y109.267 E.10552
G1 X99.554 Y109.793 E.0178
G1 X99.554 Y115.63 E.19758
G1 X99.554 Y116.156 E.0178
G1 X98.783 Y114.038 E.07629
G1 X98.049 Y110.941 E.10773
G1 X97.686 Y107.84 E.10568
M204 S2000
G1 X97.272 Y107.802 F24000
M204 S800
;TYPE:External perimeter
G1 F900
G1 X97.272 Y104.574 E.10926
G1 X97.647 Y101.366 E.10933
G1 X98.392 Y98.223 E.10933
G1 X99.497 Y95.188 E.10933
G1 X99.703 Y94.778 E.01553
G1 F666.666
G1 X99.903 Y94.379 E.01511
M204 S2000
;TYPE:Overhang perimeter
G1 F600
G1 X99.961 Y94.264 E.00436
G1 X99.961 Y95.197 E.03158
G1 X99.961 Y102.216 E.23758
G1 X99.961 Y103.149 E.03158
G1 X99.903 Y104.095 E.03208
G1 F666.667
M204 S800
;TYPE:External perimeter
G1 X99.775 Y106.18 E.07071
G1 X99.903 Y108.285 E.07138
M204 S2000
;TYPE:Overhang perimeter
G1 F600
G1 X99.961 Y109.267 E.0333
G1 X99.961 Y110.2 E.03158
G1 X99.961 Y117.181 E.2363
G1 X99.961 Y118.114 E.03158
G1 X99.903 Y117.999 E.00436
G1 F666.666
M204 S800
;TYPE:External perimeter
G1 X99.703 Y117.6 E.01511
G1 F900
G1 X99.497 Y117.19 E.01553
G1 X98.392 Y114.155 E.10933
G1 X97.647 Y111.012 E.10933
G1 X97.279 Y107.862 E.10735
M204 S2000
G1 X97.607 Y107.583 F24000
G1 E-1 F2100
G1 Z1.8 F1800
G1 X98.963 Y107.704 F24000
G1 Z1.4 F1800
G1 E1 F2100
;TYPE:Solid infill
;WIDTH:0.831487
M73 P1 R60
G1 F900
G1 X98.895 Y106.215 E.09773
;WIDTH:0.786203
G1 X98.895 Y106.17 E.00278
;WIDTH:0.831309
G1 X98.963 Y104.673 E.09824
G1 X99.079 Y103.114 E.10248
;WIDTH:0.787406
G1 X99.102 Y102.341 E.04787
;WIDTH:0.743055
G1 X99.124 Y101.569 E.04496
;WIDTH:0.698704
G1 X99.124 Y98.763 E.15301
G1 X98.471 Y101.53 E.15503
;WIDTH:0.743055
G1 X98.404 Y102.289 E.04436
;WIDTH:0.787406
G1 X98.338 Y103.048 E.04716
;WIDTH:0.831309
G1 X98.178 Y104.604 E.10254
G1 X98.153 Y106.148 E.10123
;WIDTH:0.786203
G1 X98.153 Y106.238 E.00556
;WIDTH:0.831487
G1 X98.178 Y107.774 E.10073
G1 X98.336 Y109.31 E.10125
;WIDTH:0.788536
G1 X98.403 Y110.079 E.04786
;WIDTH:0.74362
G1 X98.471 Y110.847 E.04492
;WIDTH:0.698704
G1 X99.124 Y113.615 E.15508
G1 X99.124 Y110.809 E.15301
;WIDTH:0.74362
G1 X99.102 Y110.038 E.04494
;WIDTH:0.788536
G1 X99.079 Y109.244 E.04925
;WIDTH:0.829819
G1 X98.968 Y107.764 E.09711
; stop printing object p2.stl id:0 copy 0
;LAYER_CHANGE
;Z:1.6
;HEIGHT:0.2
;BEFORE_LAYER_CHANGE
G92 E0.0
;1.6


G1 E-1 F2100
G1 Z1.8 F1800
;AFTER_LAYER_CHANGE
;1.6
; printing object p2.stl id:0 copy 0
G1 X99.557 Y103.096 F24000
G1 Z1.6 F1800
G1 E1 F2100
M204 S1500
;TYPE:Perimeter
;WIDTH:0.449999
G1 F900
G1 X99.369 Y106.239 E.10658
G1 X99.551 Y109.233 E.10153
G1 X100.023 Y111.837 E.08958
G1 X100.037 Y111.992 E.00527
G1 X100.037 Y112.518 E.0178
G1 X100.037 Y116.832 E.14602
G1 X100.037 Y117.358 E.0178
G1 X99.871 Y117.028 E.0125
G1 X98.783 Y114.038 E.1077
G1 X98.049 Y110.941 E.10773
G1 X97.679 Y107.78 E.10773
G1 X97.679 Y104.598 E.10771
G1 X98.049 Y101.437 E.10773
G1 X98.783 Y98.34 E.10773
G1 X99.87 Y95.354 E.10756
G1 X100.037 Y95.02 E.01264
G1 X100.037 Y95.546 E.0178
G1 X100.037 Y99.938 E.14866
G1 X100.037 Y100.464 E.0178
G1 X99.566 Y103.036 E.08851
M204 S2000
G1 X99.962 Y103.134 F24000
M204 S800
;TYPE:External perimeter
G1 F900
G1 X99.776 Y106.214 E.10444
G1 X99.957 Y109.209 E.10156
G1 X100.186 Y110.464 E.04318
G1 F666.667
G1 X100.386 Y111.561 E.03774
M204 S2000
;TYPE:Overhang perimeter
G1 F600
G1 X100.444 Y111.992 E.01472
G1 X100.444 Y112.925 E.03158
G1 X100.444 Y118.142 E.17659
G1 X100.444 Y119.075 E.03158
G1 X100.386 Y118.96 E.00436
G1 F666.666
M204 S800
;TYPE:External perimeter
G1 X100.186 Y118.562 E.01508
G1 F900
G1 X99.497 Y117.19 E.05197
G1 X98.392 Y114.155 E.10933
G1 X97.647 Y111.012 E.10933
G1 X97.272 Y107.804 E.10933
M73 Q1 S75
G1 X97.272 Y104.574 E.10933
G1 X97.647 Y101.366 E.10933
G1 X98.392 Y98.223 E.10933
G1 X99.497 Y95.188 E.10933
G1 X100.186 Y93.816 E.05197
G1 F666.666
G1 X100.386 Y93.418 E.01508
M204 S2000
;TYPE:Overhang perimeter
G1 F600
G1 X100.444 Y93.303 E.00436
G1 X100.444 Y94.236 E.03158
