; generated by PrusaSlicer 2.6.0-alpha6+win64 on 2024-11-13 at 11:06:07 UTC


;
;
; 

; external perimeters extrusion width = 0.45mm
; perimeters extrusion width = 0.45mm
; infill extrusion width = 0.45mm
; solid infill extrusion width = 0.68mm
; top infill extrusion width = 0.40mm
; first layer extrusion width = 0.68mm

M73 P0 R60
M73 Q0 S82
M201 X2000 Y2000 Z200 E5000 ; sets maximum accelerations, mm/sec^2
M203 X200 Y200 Z40 E300 ; sets maximum feedrates, mm / sec
M204 S2000 T2000 ; sets acceleration (S) and retract acceleration (R), mm/sec^2
M205 X8.00 Y8.00 Z0.40 E4.50 ; sets the jerk limits, mm/sec
M205 S0 T0 ; sets the minimum extruding and travel feed rate, mm/sec
;TYPE:Custom
M862.3 P "MK3S" ; printer model check
M862.1 P0.4 ; nozzle diameter check
M115 U3.12.2 ; tell printer latest fw version
G90 ; use absolute coordinates
M83 ; extruder relative mode
M104 S215 ; set extruder temp
M140 S60 ; set bed temp
M190 S60 ; wait for bed temp
M109 S215 ; wait for extruder temp
G1 E-2 F2000 ; // prevent oozing during G28
G28 W ; home all without mesh bed level
G80 ; mesh bed leveling

G1 Z0.2 F720
G1 Y-3 F1000 ; go outside print area
G92 E0
G1 X60 E9 F1000 ; intro line
G1 X100 E12.5 F1000 ; intro line

G92 E0
M221 S95

; Don't change E values below. Excessive value can damage the printer.

G21 ; set units to millimeters
G90 ; use absolute coordinates
M83 ; use relative distances for extrusion
M900 K0.05 ; Filament gcode LA 1.5
M900 K30 ; Filament gcode LA 1.0
M107
;LAYER_CHANGE
;Z:0.2
;HEIGHT:0.2
;BEFORE_LAYER_CHANGE
G92 E0.0
;0.2


G1 E-1 F2100
M73 Q0 S81
G1 Z.4 F1800
;AFTER_LAYER_CHANGE
;0.2
; printing object p2_t.stl id:0 copy 0
G1 X96.276 Y90.578 F24000
G1 Z.2 F1800
G1 E1 F2100
M204 S2000
;TYPE:Perimeter
;WIDTH:0.88252
G1 F4704
G1 X96.49 Y90.162 E.03266
;WIDTH:0.863931
G1 X97.557 Y88.207 E.15205
G1 X97.842 Y87.773 E.03545
;WIDTH:0.842831
G1 X99.104 Y85.95 E.14747
G1 X99.452 Y85.522 E.03669
;WIDTH:0.820295
G1 X100.901 Y83.83 E.14399
G1 X101.302 Y83.429 E.03666
;WIDTH:0.797348
G1 X102.935 Y81.869 E.14167
G1 X103.371 Y81.51 E.03543
;WIDTH:0.774918
G1 X105.186 Y80.085 E.14045
G1 X105.638 Y79.781 E.03315
;WIDTH:0.753805
G1 X107.633 Y78.499 E.14017
G1 X108.079 Y78.255 E.03005
;WIDTH:0.734665
G1 X110.252 Y77.127 E.14082
G1 X110.673 Y76.944 E.0264
;WIDTH:0.718027
G1 X113.018 Y75.984 E.14224
G1 X113.396 Y75.858 E.02237
;WIDTH:0.704289
G1 X115.904 Y75.081 E.14439
G1 X116.222 Y75.005 E.01798
;WIDTH:0.693753
G1 X118.88 Y74.429 E.14718
G1 X119.126 Y74.392 E.01346
;WIDTH:0.68662
G1 X122.084 Y74.024 E.15954
;WIDTH:0.683024
G1 X124.914 Y73.903 E.15076
;WIDTH:0.683796
G1 X127.916 Y74.024 E.1601
;WIDTH:0.686622
G1 X130.874 Y74.392 E.15954
;WIDTH:0.693753
G1 X131.106 Y74.426 E.01269
G1 X133.778 Y75.005 E.14796
;WIDTH:0.704292
G1 X134.096 Y75.081 E.01798
G1 X136.604 Y75.858 E.14439
;WIDTH:0.718028
G1 X136.968 Y75.978 E.02152
G1 X139.327 Y76.944 E.1431
;WIDTH:0.734667
G1 X139.748 Y77.127 E.0264
G1 X141.921 Y78.255 E.14083
;WIDTH:0.753804
G1 X142.354 Y78.49 E.02912
G1 X144.362 Y79.781 E.14111
;WIDTH:0.77492
G1 X144.8 Y80.075 E.03211
G1 X146.629 Y81.51 E.1415
;WIDTH:0.797348
G1 X147.052 Y81.856 E.03428
G1 X148.698 Y83.429 E.14282
;WIDTH:0.820295
G1 X149.086 Y83.816 E.03542
G1 X150.548 Y85.522 E.14523
;WIDTH:0.842831
G1 X150.885 Y85.933 E.03535
G1 X152.158 Y87.773 E.14882
;WIDTH:0.863929
G1 X152.432 Y88.188 E.03395
G1 X153.51 Y90.162 E.15354
;WIDTH:0.882519
G1 X153.715 Y90.557 E.03107
G1 X154.587 Y92.665 E.15926
;WIDTH:0.897568
G1 X154.724 Y93.017 E.02684
G1 X155.373 Y95.26 E.16594
;WIDTH:0.908169
G1 X155.45 Y95.547 E.02138
G1 X155.856 Y97.918 E.17307
;WIDTH:0.91365
G1 X155.888 Y98.122 E.01495
G1 X156.029 Y100.61 E.18042
G1 X155.89 Y103.294 E.19459
G1 X155.856 Y103.522 E.01669
;WIDTH:0.908169
G1 X155.454 Y105.869 E.17132
G1 X155.373 Y106.18 E.02312
;WIDTH:0.897567
G1 X154.73 Y108.4 E.16425
G1 X154.587 Y108.775 E.02852
;WIDTH:0.882518
G1 X153.724 Y110.862 E.15766
G1 X153.51 Y111.278 E.03266
;WIDTH:0.863928
G1 X152.443 Y113.233 E.15205
G1 X152.158 Y113.667 E.03545
;WIDTH:0.84283
G1 X150.896 Y115.49 E.14747
G1 X150.548 Y115.917 E.03664
;WIDTH:0.820294
G1 X149.099 Y117.61 E.14404
G1 X148.698 Y118.011 E.03666
;WIDTH:0.797348
G1 X147.065 Y119.571 E.14167
G1 X146.629 Y119.93 E.03543
;WIDTH:0.77492
G1 X144.814 Y121.354 E.14041
G1 X144.362 Y121.659 E.03319
;WIDTH:0.753804
G1 X142.367 Y122.941 E.14017
G1 X141.921 Y123.185 E.03005
;WIDTH:0.734664
G1 X139.748 Y124.313 E.14082
G1 X139.327 Y124.496 E.0264
;WIDTH:0.718028
G1 X136.982 Y125.456 E.14224
G1 X136.604 Y125.582 E.02237
;WIDTH:0.704288
G1 X134.096 Y126.359 E.14439
G1 X133.778 Y126.434 E.01797
;WIDTH:0.693753
G1 X131.12 Y127.011 E.14719
G1 X130.874 Y127.048 E.01346
;WIDTH:0.68662
G1 X127.916 Y127.416 E.15954
;WIDTH:0.683024
G1 X125.068 Y127.537 E.15172
G1 X122.084 Y127.416 E.15895
;WIDTH:0.686622
G1 X119.126 Y127.048 E.15954
;WIDTH:0.693754
G1 X118.894 Y127.014 E.01269
G1 X116.222 Y126.434 E.14797
;WIDTH:0.704292
G1 X115.904 Y126.359 E.01797
G1 X113.396 Y125.582 E.14439
;WIDTH:0.718028
G1 X113.032 Y125.462 E.02152
G1 X110.673 Y124.496 E.1431
;WIDTH:0.734667
G1 X110.266 Y124.32 E.02551
G1 X108.079 Y123.185 E.14173
;WIDTH:0.753805
G1 X107.646 Y122.949 E.02915
G1 X105.638 Y121.659 E.14108
;WIDTH:0.774919
G1 X105.2 Y121.365 E.03211
G1 X103.371 Y119.93 E.1415
;WIDTH:0.797349
G1 X102.948 Y119.584 E.03428
G1 X101.302 Y118.011 E.14282
;WIDTH:0.820296
G1 X100.914 Y117.624 E.03542
G1 X99.452 Y115.917 E.14528
;WIDTH:0.842832
G1 X99.115 Y115.506 E.03535
G1 X97.842 Y113.667 E.14876
;WIDTH:0.863931
G1 X97.568 Y113.252 E.03395
G1 X96.49 Y111.278 E.15354
;WIDTH:0.88252
G1 X96.285 Y110.883 E.03107
G1 X95.413 Y108.774 E.15932
;WIDTH:0.897569
G1 X95.276 Y108.422 E.02684
G1 X94.627 Y106.18 E.16587
;WIDTH:0.908172
G1 X94.55 Y105.893 E.02138
G1 X94.144 Y103.522 E.17307
;WIDTH:0.913653
G1 X94.112 Y103.318 E.01495
G1 X93.971 Y100.61 E.19633
G1 X94.11 Y98.146 E.17868
G1 X94.144 Y97.918 E.01669
;WIDTH:0.908171
G1 X94.546 Y95.571 E.17132
G1 X94.627 Y95.26 E.02312
;WIDTH:0.897567
G1 X95.27 Y93.04 E.16425
G1 X95.413 Y92.665 E.02852
;WIDTH:0.88252
G1 X96.253 Y90.633 E.1535
G1 X95.617 Y90.238 F24000
;TYPE:External perimeter
;WIDTH:0.679999
G1 F4704
G1 X96.946 Y87.805 E.14686
G1 X98.545 Y85.494 E.14887
G1 X100.4 Y83.329 E.15103
G1 X102.492 Y81.33 E.15328
G1 X104.802 Y79.516 E.15559
G1 X107.308 Y77.907 E.15776
G1 X109.986 Y76.517 E.15983
G1 X112.81 Y75.36 E.16167
G1 X115.752 Y74.448 E.16316
G1 X118.784 Y73.791 E.16434
G1 X121.877 Y73.393 E.1652
G1 X125 Y73.26 E.16559
G1 X128.123 Y73.393 E.16559
G1 X131.216 Y73.791 E.1652
G1 X134.248 Y74.448 E.16434
G1 X137.19 Y75.36 E.16316
G1 X140.014 Y76.517 E.16167
G1 X142.692 Y77.907 E.15983
G1 X145.198 Y79.516 E.15776
G1 X147.508 Y81.33 E.15559
G1 X149.6 Y83.329 E.15328
G1 X151.455 Y85.494 E.15103
G1 X153.054 Y87.805 E.14887
G1 X154.383 Y90.238 E.14686
G1 X155.429 Y92.771 E.14517
G1 X156.183 Y95.378 E.14376
G1 X156.639 Y98.037 E.14291
G1 X156.791 Y100.72 E.14236
G1 X156.639 Y103.403 E.14236
G1 X156.183 Y106.061 E.14286
G1 X155.429 Y108.669 E.14381
G1 X154.383 Y111.202 E.14517
G1 X153.054 Y113.635 E.14686
G1 X151.455 Y115.946 E.14887
G1 X149.6 Y118.111 E.15103
G1 X147.508 Y120.11 E.15328
G1 X145.198 Y121.924 E.15559
G1 X142.692 Y123.533 E.15776
G1 X140.014 Y124.923 E.15983
G1 X137.19 Y126.08 E.16167
G1 X134.248 Y126.992 E.16316
G1 X131.216 Y127.649 E.16434
G1 X128.123 Y128.047 E.1652
G1 X125 Y128.179 E.16558
G1 X121.877 Y128.047 E.16558
G1 X118.784 Y127.649 E.1652
G1 X115.752 Y126.992 E.16434
G1 X112.81 Y126.08 E.16316
G1 X109.986 Y124.923 E.16167
G1 X107.308 Y123.533 E.15983
G1 X104.802 Y121.924 E.15776
G1 X102.492 Y120.11 E.15559
G1 X100.4 Y118.111 E.15328
G1 X98.545 Y115.946 E.15103
G1 X96.946 Y113.635 E.14887
G1 X95.617 Y111.202 E.14686
G1 X94.571 Y108.669 E.14517
G1 X93.817 Y106.061 E.14381
G1 X93.361 Y103.403 E.14286
G1 X93.209 Y100.72 E.14236
G1 X93.361 Y98.037 E.14236
G1 X93.817 Y95.378 E.14291
G1 X94.571 Y92.771 E.14376
G1 X95.595 Y90.293 E.14203
G1 X96.016 Y90.207 F24000
G1 E-1 F2100
G1 Z.6 F1800
G1 X153.826 Y93.03 F24000
G1 Z.2 F1800
G1 E1 F2100
;TYPE:Perimeter
;WIDTH:0.897567
G1 F4704
G1 X154.552 Y95.497 E.18275
;WIDTH:0.908169
G1 X155.003 Y98.064 E.18751
;WIDTH:0.913649
G1 X155.16 Y100.659 E.18823
G1 X155.003 Y103.376 E.19704
;WIDTH:0.90817
G1 X154.552 Y105.943 E.18751
;WIDTH:0.897569
G1 X153.811 Y108.454 E.18605
;WIDTH:0.882519
G1 X152.948 Y110.541 E.15767
G1 X152.79 Y110.885 E.02643
;WIDTH:0.863928
G1 X151.722 Y112.839 E.15202
G1 X151.5 Y113.211 E.02957
;WIDTH:0.84283
G1 X150.239 Y115.034 E.14743
G1 X149.957 Y115.412 E.03137
;WIDTH:0.820294
G1 X148.508 Y117.104 E.14399
G1 X148.177 Y117.466 E.03171
;WIDTH:0.797348
G1 X146.544 Y119.026 E.14167
G1 X146.177 Y119.354 E.03088
;WIDTH:0.77492
G1 X143.978 Y121.061 E.16944
;WIDTH:0.753804
G1 X141.602 Y122.571 E.16641
;WIDTH:0.734666
G1 X139.071 Y123.871 E.16366
;WIDTH:0.718028
G1 X136.408 Y124.95 E.16129
;WIDTH:0.704291
G1 X133.64 Y125.798 E.1592
;WIDTH:0.693753
G1 X130.792 Y126.409 E.15763
;WIDTH:0.686622
G1 X127.889 Y126.777 E.15662
;WIDTH:0.683025
G1 X124.959 Y126.898 E.15608
G1 X122.111 Y126.777 E.15172
;WIDTH:0.68662
G1 X119.208 Y126.409 E.15662
;WIDTH:0.693754
G1 X116.36 Y125.798 E.15763
;WIDTH:0.704288
G1 X113.592 Y124.95 E.1592
;WIDTH:0.718027
G1 X110.929 Y123.871 E.16129
;WIDTH:0.734665
G1 X108.398 Y122.571 E.16366
;WIDTH:0.753805
G1 X106.022 Y121.061 E.16641
;WIDTH:0.774919
G1 X103.823 Y119.354 E.16944
;WIDTH:0.797349
G1 X103.456 Y119.026 E.03088
G1 X101.823 Y117.466 E.14167
;WIDTH:0.820295
G1 X101.492 Y117.104 E.03171
G1 X100.043 Y115.412 E.14399
;WIDTH:0.842831
G1 X99.761 Y115.034 E.03137
G1 X98.5 Y113.211 E.14743
;WIDTH:0.863931
G1 X98.278 Y112.839 E.02957
G1 X97.21 Y110.885 E.15202
;WIDTH:0.88252
G1 X97.052 Y110.541 E.02643
G1 X96.189 Y108.454 E.15767
;WIDTH:0.897567
G1 X95.448 Y105.943 E.18605
;WIDTH:0.908172
G1 X94.997 Y103.376 E.18751
;WIDTH:0.913653
G1 X94.84 Y100.659 E.19704
G1 X94.997 Y98.064 E.18823
;WIDTH:0.908173
G1 X95.448 Y95.497 E.18751
;WIDTH:0.89757
G1 X96.189 Y92.986 E.18605
;WIDTH:0.88252
G1 X97.052 Y90.898 E.15773
G1 X97.21 Y90.555 E.02636
;WIDTH:0.863931
G1 X98.278 Y88.6 E.15208
G1 X98.5 Y88.228 E.02957
;WIDTH:0.842833
G1 X99.761 Y86.406 E.14738
G1 X100.043 Y86.028 E.03137
;WIDTH:0.820296
G1 X101.492 Y84.336 E.14399
G1 X101.823 Y83.974 E.03171
;WIDTH:0.797348
G1 X103.456 Y82.414 E.14167
G1 X103.823 Y82.086 E.03088
;WIDTH:0.774918
G1 X106.022 Y80.379 E.16944
;WIDTH:0.753806
G1 X108.398 Y78.869 E.16641
;WIDTH:0.734667
G1 X110.929 Y77.569 E.16366
;WIDTH:0.718029
G1 X113.592 Y76.49 E.16129
;WIDTH:0.704291
G1 X116.36 Y75.641 E.15922
;WIDTH:0.693753
G1 X119.208 Y75.031 E.15762
;WIDTH:0.686623
G1 X122.111 Y74.663 E.15662
;WIDTH:0.683024
G1 X124.941 Y74.543 E.15076
;WIDTH:0.683796
G1 X127.889 Y74.663 E.15723
;WIDTH:0.68662
G1 X130.792 Y75.031 E.15662
;WIDTH:0.693753
G1 X133.64 Y75.641 E.15762
;WIDTH:0.704288
G1 X136.408 Y76.49 E.15922
;WIDTH:0.718028
G1 X139.071 Y77.569 E.16129
;WIDTH:0.734665
G1 X141.602 Y78.869 E.16366
;WIDTH:0.753804
G1 X143.978 Y80.379 E.16641
;WIDTH:0.77492
G1 X146.177 Y82.086 E.16944
;WIDTH:0.797348
G1 X146.544 Y82.414 E.03088
G1 X148.177 Y83.974 E.14167
;WIDTH:0.820295
G1 X148.508 Y84.336 E.03171
G1 X149.957 Y86.028 E.14399
;WIDTH:0.84283
G1 X150.239 Y86.406 E.03137
G1 X151.5 Y88.228 E.14738
;WIDTH:0.863929
G1 X151.722 Y88.6 E.02957
G1 X152.79 Y90.555 E.15208
;WIDTH:0.882519
G1 X152.948 Y90.898 E.02636
G1 X153.806 Y92.974 E.15682
G1 X153.133 Y93.285 F24000
;TYPE:External perimeter
;WIDTH:0.679999
G1 F4704
G1 X153.835 Y95.705 E.13348
G1 X154.263 Y98.191 E.13363
G1 X154.407 Y100.702 E.13323
G1 X154.267 Y103.213 E.13322
G1 X153.843 Y105.701 E.1337
G1 X153.14 Y108.139 E.13441
G1 X152.165 Y110.504 E.13551
G1 X150.927 Y112.774 E.13697
G1 X149.44 Y114.926 E.13857
G1 X147.718 Y116.939 E.14033
G1 X145.778 Y118.795 E.14222
G1 X143.639 Y120.476 E.14411
G1 X141.296 Y121.981 E.14752
G1 X138.822 Y123.264 E.14763
G1 X136.216 Y124.33 E.14915
G1 X133.504 Y125.169 E.15038
G1 X130.71 Y125.774 E.15144
G1 X127.862 Y126.139 E.1521
G1 X124.986 Y126.26 E.15249
G1 X122.138 Y126.139 E.151
G1 X119.29 Y125.774 E.1521
G1 X116.496 Y125.169 E.15144
G1 X113.784 Y124.33 E.15038
G1 X111.178 Y123.264 E.14915
G1 X108.704 Y121.981 E.14763
G1 X106.386 Y120.494 E.14589
G1 X104.246 Y118.816 E.14406
G1 X102.304 Y116.963 E.14219
G1 X100.58 Y114.952 E.14032
G1 X99.09 Y112.803 E.13853
G1 X97.85 Y110.535 E.13693
G1 X96.872 Y108.172 E.13547
G1 X96.165 Y105.735 E.13442
G1 X95.737 Y103.249 E.13363
G1 X95.593 Y100.738 E.13323
G1 X95.737 Y98.191 E.13514
G1 X96.165 Y95.705 E.13363
G1 X96.872 Y93.268 E.13442
G1 X97.85 Y90.905 E.13547
G1 X99.09 Y88.637 E.13693
G1 X100.58 Y86.488 E.13853
G1 X102.304 Y84.477 E.14032
G1 X104.246 Y82.624 E.14219
G1 X106.386 Y80.946 E.14406
G1 X108.704 Y79.459 E.14589
G1 X111.178 Y78.176 E.14763
G1 X113.784 Y77.11 E.14915
G1 X116.496 Y76.271 E.15038
G1 X119.29 Y75.666 E.15144
G1 X122.138 Y75.301 E.1521
G1 X124.995 Y75.181 E.15148
G1 X127.862 Y75.301 E.15201
G1 X130.71 Y75.666 E.1521
G1 X133.504 Y76.271 E.15144
G1 X136.216 Y77.11 E.15038
G1 X138.822 Y78.176 E.14915
G1 X141.296 Y79.459 E.14763
G1 X143.614 Y80.946 E.14589
G1 X145.754 Y82.624 E.14406
G1 X147.696 Y84.477 E.14219
G1 X149.42 Y86.488 E.14032
G1 X150.91 Y88.637 E.13853
G1 X152.15 Y90.905 E.13693
G1 X153.112 Y93.229 E.13324
G1 X153.526 Y93.359 F24000
; stop printing object p2_t.stl id:0 copy 0
M106 S84.15
;LAYER_CHANGE
;Z:0.4
;HEIGHT:0.2
;BEFORE_LAYER_CHANGE
G92 E0.0
;0.4


G1 E-1 F2100
G1 Z.6 F1800
;AFTER_LAYER_CHANGE
;0.4
; printing object p2_t.stl id:0 copy 0
G1 X95.701 Y90.278 F24000
G1 Z.4 F1800
G1 E1 F2100
M204 S1500
;TYPE:Perimeter
;WIDTH:0.449999
G1 F11054.364
G1 X97.025 Y87.853 E.09352
G1 X98.618 Y85.55 E.09479
G1 X100.467 Y83.392 E.09619
G1 X102.553 Y81.399 E.09765
G1 X104.856 Y79.591 E.09911
G1 X107.355 Y77.986 E.10053
G1 X110.025 Y76.6 E.10183
G1 X112.841 Y75.447 E.103
G1 X115.775 Y74.537 E.10398
G1 X118.8 Y73.881 E.10477
G1 X121.885 Y73.485 E.10528
G1 X125 Y73.353 E.10553
G1 X128.084 Y73.484 E.10448
G1 X131.2 Y73.881 E.10633
G1 X134.225 Y74.537 E.10477
G1 X137.159 Y75.447 E.10398
G1 X139.975 Y76.6 E.103
G1 X142.645 Y77.986 E.10183
G1 X145.144 Y79.591 E.10053
G1 X147.447 Y81.399 E.09911
G1 X149.533 Y83.392 E.09765
G1 X151.382 Y85.55 E.09619
G1 X152.975 Y87.853 E.09479
G1 X154.299 Y90.278 E.09352
G1 X155.342 Y92.801 E.09241
G1 X156.093 Y95.399 E.09154
G1 X156.547 Y98.047 E.09094
G1 X156.695 Y100.782 E.09271
G1 X156.547 Y103.393 E.08852
G1 X156.087 Y106.061 E.09164
G1 X155.342 Y108.639 E.09083
G1 X154.299 Y111.162 E.09241
G1 X152.975 Y113.587 E.09352
G1 X151.382 Y115.889 E.09476
G1 X149.533 Y118.048 E.09622
G1 X147.447 Y120.041 E.09765
G1 X145.144 Y121.849 E.09911
G1 X142.645 Y123.454 E.10053
G1 X139.975 Y124.84 E.10183
G1 X137.159 Y125.993 E.103
G1 X134.225 Y126.902 E.10397
G1 X131.2 Y127.558 E.10477
G1 X128.115 Y127.955 E.10528
G1 X125 Y128.087 E.10553
G1 X121.885 Y127.955 E.10553
G1 X118.8 Y127.558 E.10528
G1 X115.775 Y126.902 E.10477
G1 X112.841 Y125.993 E.10397
G1 X110.025 Y124.84 E.103
G1 X107.355 Y123.454 E.10183
G1 X104.856 Y121.849 E.10053
G1 X102.553 Y120.041 E.09911
G1 X100.467 Y118.048 E.09765
G1 X98.618 Y115.889 E.09622
G1 X97.025 Y113.587 E.09476
G1 X95.701 Y111.162 E.09352
G1 X94.658 Y108.639 E.09241
G1 X93.907 Y106.041 E.09154
G1 X93.453 Y103.393 E.09094
G1 X93.301 Y100.72 E.09062
G1 X93.453 Y98.047 E.09062
G1 X93.907 Y95.399 E.09094
G1 X94.658 Y92.801 E.09154
G1 X95.678 Y90.333 E.09039
M204 S2000
G1 X95.332 Y90.105 F24000
M204 S800
;TYPE:External perimeter
G1 F3000
G1 X96.678 Y87.639 E.0951
G1 X98.296 Y85.302 E.09621
G1 F2999.986
G1 X100.171 Y83.112 E.09759
G1 X102.286 Y81.091 E.09902
G1 X104.62 Y79.259 E.10043
G1 X107.15 Y77.634 E.10178
G1 F3000
G1 X109.854 Y76.231 E.10311
G1 X112.703 Y75.063 E.10422
G1 X115.672 Y74.143 E.10521
G1 X118.731 Y73.48 E.10595
G1 X121.85 Y73.079 E.10644
G1 X125 Y72.945 E.10672
G1 X128.118 Y73.078 E.10564
G1 F2999.99
G1 X131.269 Y73.48 E.10752
G1 X134.328 Y74.143 E.10595
G1 F3000
G1 X137.297 Y75.063 E.10521
G1 X140.146 Y76.231 E.10422
G1 X142.85 Y77.634 E.10311
G1 F2999.986
