; generated by PrusaSlicer 2.6.0-alpha6+win64 on 2024-11-12 at 11:25:53 UTC


;
;
; 

; external perimeters extrusion width = 0.45mm
; perimeters extrusion width = 0.45mm
; infill extrusion width = 0.45mm
; solid infill extrusion width = 0.68mm
; top infill extrusion width = 0.40mm
; first layer extrusion width = 0.68mm

M73 P0 R55
M73 Q0 S76
M201 X2000 Y2000 Z200 E5000 ; sets maximum accelerations, mm/sec^2
M203 X200 Y200 Z40 E300 ; sets maximum feedrates, mm / sec
M204 S2000 T2000 ; sets acceleration (S) and retract acceleration (R), mm/sec^2
M205 X8.00 Y8.00 Z0.40 E4.50 ; sets the jerk limits, mm/sec
M205 S0 T0 ; sets the minimum extruding and travel feed rate, mm/sec
;TYPE:Custom
M862.3 P "MK3S" ; printer model check
M862.1 P0.4 ; nozzle diameter check
M115 U3.12.2 ; tell printer latest fw version
G90 ; use absolute coordinates
M83 ; extruder relative mode
M104 S215 ; set extruder temp
M140 S60 ; set bed temp
M190 S60 ; wait for bed temp
M109 S215 ; wait for extruder temp
G1 E-2 F2000 ; // prevent oozing during G28
G28 W ; home all without mesh bed level
G80 ; mesh bed leveling

G1 Z0.2 F720
G1 Y-3 F1000 ; go outside print area
G92 E0
G1 X60 E9 F1000 ; intro line
G1 X100 E12.5 F1000 ; intro line

G92 E0
M221 S95

; Don't change E values below. Excessive value can damage the printer.

G21 ; set units to millimeters
G90 ; use absolute coordinates
M83 ; use relative distances for extrusion
M900 K0.05 ; Filament gcode LA 1.5
M900 K30 ; Filament gcode LA 1.0
M107
;LAYER_CHANGE
;Z:0.2
;HEIGHT:0.2
;BEFORE_LAYER_CHANGE
G92 E0.0
;0.2


G1 E-1 F2100
M73 Q0 S75
G1 Z.4 F1800
;AFTER_LAYER_CHANGE
;0.2
; printing object p3.stl id:0 copy 0
G1 X152.725 Y102.587 F24000
G1 Z.2 F1800
G1 E1 F2100
M204 S2000
;TYPE:External perimeter
;WIDTH:0.38292
G1 F900
G1 X152.813 Y105.716 E.0885
G1 X152.726 Y108.834 E.08818
G1 X152.699 Y109.154 E.00908
; stop printing object p3.stl id:0 copy 0
M106 S84.15
;LAYER_CHANGE
;Z:0.4
;HEIGHT:0.2
;BEFORE_LAYER_CHANGE
G92 E0.0
;0.4


G1 E-1 F2100
G1 Z.6 F1800
;AFTER_LAYER_CHANGE
;0.4
; printing object p3.stl id:0 copy 0
G1 X152.193 Y100.733 F24000
G1 Z.4 F1800
G1 E1 F2100
;TYPE:Overhang perimeter
;WIDTH:0.62521
G1 F600
G1 X152.173 Y100.491 E.01176
;WIDTH:0.5844
G1 X152.152 Y100.249 E.01094
;WIDTH:0.54359
G1 X152.132 Y100.007 E.01011
;WIDTH:0.50278
G1 X152.111 Y99.765 E.00929
;WIDTH:0.46197
G1 X152.091 Y99.523 E.00846
G1 E-1 F2100
G1 Z.8 F1800
G1 X152.708 Y105.709 F24000
G1 Z.4 F1800
G1 E1 F2100
M204 S800
;TYPE:External perimeter
;WIDTH:0.580639
G1 F900
G1 X152.643 Y107.279 E.07026
;WIDTH:0.53709
G1 X152.627 Y107.654 E.01542
G1 X152.577 Y108.818 E.04787
;WIDTH:0.49354
G1 F893.398
G1 X152.501 Y109.425 E.02292
;WIDTH:0.449719
G1 F666.333
G1 X152.427 Y110.008 E.01988
M204 S2000
;TYPE:Overhang perimeter
;WIDTH:0.405898
G1 F600
G1 X152.387 Y110.324 E.00961
;WIDTH:0.410596
G1 X152.354 Y110.386 E.00215
;WIDTH:0.453512
G1 X152.322 Y110.448 E.00238
;WIDTH:0.496428
G1 X152.29 Y110.51 E.00263
;WIDTH:0.539344
G1 X152.258 Y110.572 E.00288
;WIDTH:0.58226
G1 X152.225 Y110.633 E.00311
;WIDTH:0.625176
G1 X152.193 Y110.695 E.00338
G1 X152.172 Y110.629 E.00335
;WIDTH:0.58226
G1 X152.15 Y110.562 E.00316
;WIDTH:0.539344
G1 X152.129 Y110.496 E.00286
;WIDTH:0.496428
G1 X152.107 Y110.43 E.00262
;WIDTH:0.453512
G1 X152.086 Y110.363 E.0024
;WIDTH:0.410596
G1 X152.064 Y110.297 E.00213
;WIDTH:0.409633
G1 X152.085 Y109.8 E.01517
;WIDTH:0.451587
G1 X152.106 Y109.302 E.01694
;WIDTH:0.49354
G1 X152.127 Y108.805 E.01864
;WIDTH:0.53709
G1 X152.149 Y107.265 E.06329
;WIDTH:0.580639
G1 X152.171 Y105.724 E.06891
G1 X152.149 Y104.182 E.06895
;WIDTH:0.537703
G1 X152.128 Y102.64 E.06345
;WIDTH:0.494766
G1 X152.107 Y102.137 E.01891
;WIDTH:0.452399
G1 X152.085 Y101.634 E.01714
;WIDTH:0.410031
G1 X152.064 Y101.132 E.01534
;WIDTH:0.410588
G1 X152.086 Y101.065 E.00216
;WIDTH:0.453512
G1 X152.107 Y100.999 E.00236
;WIDTH:0.496437
G1 X152.129 Y100.933 E.00262
;WIDTH:0.539361
G1 X152.15 Y100.866 E.0029
;WIDTH:0.582286
G1 X152.172 Y100.8 E.00312
;WIDTH:0.62521
G1 X152.193 Y100.733 E.0034
G1 X152.225 Y100.795 E.00338
;WIDTH:0.582286
G1 X152.258 Y100.857 E.00315
;WIDTH:0.539361
G1 X152.29 Y100.919 E.00288
;WIDTH:0.496437
G1 X152.322 Y100.981 E.00263
;WIDTH:0.453512
G1 X152.354 Y101.043 E.00238
;WIDTH:0.410588
G1 X152.387 Y101.105 E.00215
;WIDTH:0.387936
G1 X152.427 Y101.421 E.00914
M204 S800
;TYPE:External perimeter
;WIDTH:0.423546
G1 F633.356
G1 X152.477 Y101.815 E.01257
G1 F774.67
;WIDTH:0.459156
G1 F807.656
G1 X152.527 Y102.208 E.01371
G1 F900
;WIDTH:0.494766
G1 X152.579 Y102.627 E.01586
;WIDTH:0.537703
G1 X152.627 Y103.765 E.04686
G1 X152.644 Y104.168 E.01659
;WIDTH:0.580639
G1 X152.706 Y105.649 E.06628
M204 S2000
G1 E-1 F2100
G1 Z.8 F1800
G1 X152.193 Y110.695 F24000
G1 Z.4 F1800
G1 E1 F2100
;TYPE:Overhang perimeter
;WIDTH:0.625176
G1 F600
G1 X152.173 Y110.935 E.01166
;WIDTH:0.584817
G1 X152.153 Y111.174 E.01081
;WIDTH:0.544457
G1 X152.132 Y111.413 E.01001
;WIDTH:0.504098
G1 X152.112 Y111.652 E.0092
;WIDTH:0.463738
G1 X152.092 Y111.891 E.00839
; stop printing object p3.stl id:0 copy 0
M106 S170.85
;LAYER_CHANGE
;Z:0.6
;HEIGHT:0.2
;BEFORE_LAYER_CHANGE
G92 E0.0
;0.6


G1 E-1 F2100
G1 Z.8 F1800
;AFTER_LAYER_CHANGE
;0.6
; printing object p3.stl id:0 copy 0
G1 X151.854 Y110.257 F24000
G1 Z.6 F1800
G1 E1 F2100
M204 S1500
;TYPE:Perimeter
;WIDTH:0.625298
G1 F900
G1 X151.832 Y110.191 E.00337
;WIDTH:0.582351
G1 X151.811 Y110.124 E.00315
;WIDTH:0.539404
G1 X151.789 Y110.058 E.00287
;WIDTH:0.496457
G1 X151.768 Y109.991 E.00265
;WIDTH:0.45351
G1 F845.308
G1 X151.746 Y109.925 E.00238
;WIDTH:0.410563
G1 F745.44
G1 X151.725 Y109.858 E.00215
;WIDTH:0.414865
G1 F750.154
G1 X151.748 Y109.296 E.0174
G1 F818.49
;WIDTH:0.462114
G1 F857.498
G1 X151.772 Y108.734 E.01961
G1 F900
;WIDTH:0.504231
G1 X151.793 Y107.234 E.05754
;WIDTH:0.546347
G1 X151.814 Y105.733 E.06284
G1 X151.793 Y104.192 E.06451
;WIDTH:0.50312
G1 X151.771 Y102.651 E.05897
;WIDTH:0.459892
G1 F854.434
G1 X151.748 Y102.105 E.01895
;WIDTH:0.413786
G1 F749.074
G1 X151.725 Y101.558 E.01688
;WIDTH:0.410596
G1 F745.571
G1 X151.746 Y101.492 E.00212
G1 F808.284
;WIDTH:0.453513
G1 F845.353
G1 X151.768 Y101.426 E.00238
G1 F900
;WIDTH:0.49643
G1 X151.789 Y101.359 E.00265
;WIDTH:0.539347
G1 X151.811 Y101.293 E.00287
;WIDTH:0.582264
G1 X151.832 Y101.226 E.00315
;WIDTH:0.62518
G1 X151.854 Y101.16 E.00337
G1 X151.88 Y101.211 E.00277
G1 X151.886 Y101.222 E.00061
;WIDTH:0.582264
G1 X151.918 Y101.284 E.00313
;WIDTH:0.539347
G1 X151.951 Y101.346 E.0029
;WIDTH:0.49643
G1 X151.983 Y101.407 E.0026
;WIDTH:0.453513
G1 X152.015 Y101.469 E.00238
;WIDTH:0.410596
G1 X152.047 Y101.531 E.00213
;WIDTH:0.413786
G1 X152.116 Y102.074 E.01688
;WIDTH:0.459892
G1 X152.188 Y102.64 E.01978
;WIDTH:0.50312
G1 X152.252 Y104.179 E.05894
;WIDTH:0.546347
G1 X152.317 Y105.747 E.06569
G1 X152.254 Y107.247 E.06285
;WIDTH:0.504231
G1 X152.191 Y108.746 E.05755
;WIDTH:0.462114
G1 X152.118 Y109.327 E.02041
;WIDTH:0.414865
G1 X152.047 Y109.886 E.01743
;WIDTH:0.410563
G1 X152.015 Y109.947 E.00211
;WIDTH:0.45351
G1 X151.983 Y110.009 E.00238
;WIDTH:0.496457
G1 X151.95 Y110.071 E.00265
;WIDTH:0.539404
G1 X151.918 Y110.133 E.00288
;WIDTH:0.582351
G1 X151.886 Y110.195 E.00313
;WIDTH:0.625298
G1 X151.881 Y110.204 E.0005
M204 S2000
G1 E-1 F2100
G1 Z1 F1800
G1 X152.08 Y111.881 F24000
G1 Z.6 F1800
G1 E1 F2100
M204 S800
;TYPE:External perimeter
;WIDTH:0.449999
G1 F900
G1 X151.88 Y112.577 E.02451
G1 F666.666
G1 X151.68 Y113.272 E.02448
M204 S2000
;TYPE:Overhang perimeter
G1 F600
G1 X151.359 Y114.389 E.03934
G1 X151.359 Y112.589 E.06093
G1 X151.359 Y98.835 E.46556
G1 X151.359 Y97.036 E.06089
G1 X151.68 Y98.153 E.03934
G1 F666.666
M204 S800
;TYPE:External perimeter
G1 X151.88 Y98.847 E.02445
G1 F900
G1 X152.081 Y99.542 E.02449
G1 X152.597 Y102.582 E.10437
G1 X152.772 Y105.773 E.10817
G1 X152.602 Y108.804 E.10276
G1 X152.091 Y111.822 E.10361
M204 S2000
G1 X151.698 Y111.999 F24000
G1 X151.724 Y111.8
M204 S1500
;TYPE:Perimeter
;WIDTH:0.409142
G1 F741.362
G1 X151.746 Y111.543 E.00785
G1 F804.758
;WIDTH:0.452373
G1 F842.529
G1 X151.767 Y111.286 E.00878
G1 F899.868
;WIDTH:0.495604
G1 F900
G1 X151.789 Y111.029 E.00971
;WIDTH:0.538836
G1 X151.81 Y110.771 E.01067
;WIDTH:0.582067
G1 X151.832 Y110.514 E.01156
;WIDTH:0.625298
G1 X151.854 Y110.257 E.01249
M204 S2000
G1 E-1 F2100
G1 Z1 F1800
G1 X151.724 Y99.624 F24000
G1 Z.6 F1800
G1 E1 F2100
M204 S1500
;WIDTH:0.409172
G1 F741.489
G1 X151.746 Y99.88 E.00782
G1 F804.834
;WIDTH:0.452374
G1 F842.572
G1 X151.767 Y100.136 E.00875
G1 F899.871
;WIDTH:0.495575
G1 F900
G1 X151.789 Y100.392 E.00967
;WIDTH:0.538777
G1 X151.81 Y100.648 E.01059
;WIDTH:0.581979
G1 X151.832 Y100.904 E.01152
;WIDTH:0.62518
G1 X151.854 Y101.16 E.01244
M204 S2000
; stop printing object p3.stl id:0 copy 0
M106 S255
;LAYER_CHANGE
;Z:0.8
;HEIGHT:0.2
;BEFORE_LAYER_CHANGE
G92 E0.0
;0.8


G1 E-1 F2100
G1 Z1 F1800
;AFTER_LAYER_CHANGE
;0.8
; printing object p3.stl id:0 copy 0
G1 X151.086 Y113.625 F24000
G1 Z.8 F1800
G1 E1 F2100
M204 S1500
;WIDTH:0.582744
G1 F900
G1 X151.086 Y111.709 E.086
;WIDTH:0.611553
G1 X151.1 Y111.366 E.01623
;WIDTH:0.640361
G1 X151.115 Y111.022 E.01711
G1 X151.091 Y110.923 E.00506
;WIDTH:0.592771
G1 X151.067 Y110.823 E.0047
;WIDTH:0.54518
G1 X151.043 Y110.723 E.00429
;WIDTH:0.49759
G1 X151.02 Y110.624 E.00384
;WIDTH:0.449999
G1 F895.125
G1 X151.02 Y109.834 E.02674
G1 X151.02 Y101.585 E.27922
G1 X151.02 Y100.795 E.02674
;WIDTH:0.497579
G1 F900
G1 X151.043 Y100.696 E.00384
;WIDTH:0.545158
G1 X151.067 Y100.596 E.00429
;WIDTH:0.592737
G1 X151.091 Y100.496 E.0047
;WIDTH:0.640316
G1 X151.115 Y100.397 E.00506
G1 X151.1 Y100.056 E.01696
;WIDTH:0.611572
G1 X151.086 Y99.715 E.01614
;WIDTH:0.582828
G1 X151.086 Y97.803 E.08584
G1 X151.134 Y97.97 E.0078
G1 X151.622 Y99.67 E.0794
;WIDTH:0.611572
G1 X151.665 Y100.008 E.01611
;WIDTH:0.640316
G1 X151.708 Y100.347 E.01697
G1 X151.748 Y100.441 E.00507
;WIDTH:0.592737
G1 X151.788 Y100.535 E.00467
;WIDTH:0.545158
G1 X151.828 Y100.629 E.00427
;WIDTH:0.497579
G1 X151.869 Y100.724 E.00391
;WIDTH:0.449999
G1 X152.191 Y102.618 E.06503
G1 X152.364 Y105.779 E.10716
G1 X152.197 Y108.751 E.10076
G1 X151.868 Y110.695 E.06674
;WIDTH:0.49759
G1 X151.828 Y110.789 E.00386
;WIDTH:0.54518
G1 X151.788 Y110.884 E.0043
;WIDTH:0.592771
G1 X151.748 Y110.978 E.00467
;WIDTH:0.640361
G1 X151.708 Y111.072 E.00507
G1 X151.664 Y111.421 E.01747
;WIDTH:0.611553
G1 X151.62 Y111.769 E.01659
;WIDTH:0.582744
G1 X151.134 Y113.458 E.07889
G1 X151.103 Y113.567 E.00509
M204 S2000
G1 E-1 F2100
G1 Z1.2 F1800
G1 X151.219 Y114.876 F24000
G1 Z.8 F1800
G1 E1 F2100
M204 S800
;TYPE:External perimeter
;WIDTH:0.449999
G1 F900
G1 X151.134 Y115.081 E.00751
G1 F666.667
G1 X150.934 Y115.565 E.01773
M204 S2000
;TYPE:Overhang perimeter
G1 F600
G1 X150.613 Y116.341 E.02843
G1 X150.613 Y114.817 E.05159
G1 X150.613 Y96.606 E.61642
G1 X150.613 Y95.081 E.05162
G1 X150.934 Y95.857 E.02843
G1 F666.667
M204 S800
;TYPE:External perimeter
G1 X151.134 Y96.34 E.0177
G1 F900
G1 X151.211 Y96.525 E.00678
G1 X152.082 Y99.55 E.10655
G1 X152.596 Y102.573 E.10379
G1 X152.77 Y105.802 E.10946
G1 X152.602 Y108.796 E.1015
G1 X152.082 Y111.874 E.10566
G1 X151.235 Y114.819 E.10373
M204 S2000
G1 X150.826 Y114.951 F24000
G1 E-1 F2100
G1 Z1.2 F1800
G1 X151.485 Y111.046 F24000
G1 Z.8 F1800
G1 E1 F2100
;TYPE:Bridge infill
;WIDTH:0.76919
G1 F2400
G1 X151.485 Y100.373 E.64454
; stop printing object p3.stl id:0 copy 0
;LAYER_CHANGE
;Z:1
;HEIGHT:0.2
;BEFORE_LAYER_CHANGE
G92 E0.0
;1


G1 E-1 F2100
G1 Z1.2 F1800
;AFTER_LAYER_CHANGE
;1
; printing object p3.stl id:0 copy 0
G1 X151.672 Y111.835 F24000
G1 Z1 F1800
G1 E1 F2100
M204 S1500
;TYPE:Perimeter
;WIDTH:0.449999
G1 F900
G1 X150.822 Y114.773 E.10353
G1 X150.388 Y115.823 E.03846
G1 F895.123
G1 X150.273 Y116.098 E.01009
G1 X150.273 Y115.309 E.02671
G1 X150.273 Y110.614 E.15892
G1 X150.273 Y109.825 E.02671
G1 X150.388 Y109.133 E.02374
G1 F900
G1 X150.449 Y108.764 E.01266
G1 X150.631 Y105.676 E.10471
G1 X150.44 Y102.589 E.10469
G1 X150.388 Y102.303 E.00984
G1 F895.114
G1 X150.273 Y101.678 E.02151
G1 X150.273 Y100.888 E.02674
G1 X150.273 Y96.118 E.16146
G1 X150.273 Y95.329 E.02671
G1 X150.388 Y95.605 E.01012
G1 F900
G1 X150.836 Y96.688 E.03967
G1 X151.686 Y99.647 E.10421
G1 X152.198 Y102.68 E.10412
G1 X152.363 Y105.797 E.10565
G1 X152.198 Y108.743 E.09987
G1 X151.682 Y111.775 E.10411
M204 S2000
G1 X152.07 Y111.925 F24000
M204 S800
;TYPE:External perimeter
G1 F900
G1 X151.207 Y114.908 E.10511
G1 X150.388 Y116.886 E.07247
G1 F666.667
G1 X150.188 Y117.369 E.0177
M204 S2000
;TYPE:Overhang perimeter
G1 F600
G1 X150.028 Y117.754 E.01411
G1 X149.866 Y118.048 E.01136
G1 X149.866 Y116.597 E.04911
G1 X149.866 Y111.021 E.18874
G1 X149.866 Y109.825 E.04048
G1 X149.887 Y109.596 E.00778
G1 X150.042 Y108.739 E.02948
G1 X150.188 Y106.336 E.08149
G1 F666.667
M204 S800
;TYPE:External perimeter
G1 X150.225 Y105.699 E.0216
G1 X150.188 Y105.085 E.02082
M204 S2000
;TYPE:Overhang perimeter
G1 F600
G1 X150.04 Y102.665 E.08207
G1 X149.866 Y101.715 E.03269
G1 X149.866 Y100.518 E.04052
G1 X149.866 Y94.826 E.19267
G1 X149.866 Y93.375 E.04911
G1 X150.02 Y93.653 E.01076
G1 X150.188 Y94.058 E.01484
G1 F666.667
M204 S800
;TYPE:External perimeter
G1 X150.388 Y94.541 E.0177
G1 F900
G1 X151.221 Y96.554 E.07374
G1 X152.083 Y99.557 E.10575
G1 X152.603 Y102.635 E.10566
G1 X152.77 Y105.82 E.10796
G1 X152.603 Y108.788 E.10062
G1 X152.08 Y111.866 E.10568
M204 S2000
G1 X151.687 Y112.043 F24000
G1 E-1 F2100
G1 Z1.4 F1800
G1 X150.738 Y114.162 F24000
G1 Z1 F1800
G1 E1 F2100
;TYPE:Bridge infill
;WIDTH:0.76919
G1 F2400
G1 X150.738 Y109.44 E.28516
G1 X150.852 Y108.8 E.03926
G1 X150.861 Y108.645 E.00938
G1 X151.044 Y108.764 E.01318
G1 X151.331 Y109.071 E.02538
G1 X151.464 Y109.304 E.0162
G1 X151.464 Y112.077 E.16746
G1 E-1 F2100
G1 Z1.4 F1800
G1 X150.999 Y103.723 F24000
G1 Z1 F1800
G1 E1 F2100
;TYPE:Solid infill
;WIDTH:0.811194
G1 F900
M73 P0 R54
G1 X151.115 Y105.71 E.12715
;WIDTH:0.807485
G1 X151.115 Y105.754 E.0028
;WIDTH:0.811433
G1 X150.984 Y107.964 E.14147
G1 X151.275 Y108.09 E.02026
G1 X151.569 Y108.316 E.0237
G1 X151.725 Y108.492 E.01503
G1 X151.878 Y105.796 E.17256
;WIDTH:0.807692
G1 X151.877 Y105.665 E.00833
;WIDTH:0.811194
G1 X151.725 Y102.931 E.17492
G1 X151.44 Y103.218 E.02584
G1 X150.984 Y103.468 E.03322
G1 X150.995 Y103.663 E.01248
G1 E-1 F2100
G1 Z1.4 F1800
G1 X150.738 Y97.259 F24000
G1 Z1 F1800
G1 E1 F2100
;TYPE:Bridge infill
;WIDTH:0.76919
G1 F2400
G1 X150.738 Y101.984 E.28534
G1 X150.852 Y102.626 E.03938
G1 X150.861 Y102.778 E.0092
G1 X151.044 Y102.66 E.01315
G1 X151.331 Y102.353 E.02538
G1 X151.464 Y102.12 E.0162
G1 X151.464 Y99.355 E.16698
; stop printing object p3.stl id:0 copy 0
;LAYER_CHANGE
;Z:1.2
;HEIGHT:0.2
;BEFORE_LAYER_CHANGE
G92 E0.0
;1.2


G1 E-1 F2100
G1 Z1.4 F1800
;AFTER_LAYER_CHANGE
;1.2
; printing object p3.stl id:0 copy 0
G1 X150.443 Y108.809 F24000
G1 Z1.2 F1800
G1 E1 F2100
M204 S1500
;TYPE:Perimeter
;WIDTH:0.449999
G1 F967
G1 X150.631 Y105.673 E.10634
G1 X150.439 Y102.58 E.1049
G1 X149.877 Y99.54 E.10464
M73 P1 R54
G1 X149.641 Y98.784 E.02681
G1 F895.105
G1 X149.527 Y98.417 E.01301
G1 X149.527 Y97.628 E.02671
G1 X149.527 Y94.391 E.10957
G1 X149.527 Y93.602 E.02671
G1 X149.641 Y93.809 E.008
G1 F967
G1 X149.648 Y93.82 E.00044
G1 X150.838 Y96.694 E.10529
G1 X151.687 Y99.654 E.10423
G1 X152.198 Y102.688 E.10414
G1 X152.363 Y105.806 E.10569
G1 X152.198 Y108.735 E.0993
G1 X151.67 Y111.844 E.10674
G1 X150.819 Y114.783 E.10357
G1 X149.663 Y117.572 E.10219
G1 X149.641 Y117.612 E.00155
G1 F895.091
G1 X149.527 Y117.819 E.008
G1 X149.527 Y117.03 E.02671
G1 X149.527 Y113.796 E.10947
G1 X149.527 Y113.006 E.02674
G1 X149.641 Y112.635 E.01314
G1 F967
G1 X149.895 Y111.808 E.02928
G1 X150.434 Y108.869 E.10114
M204 S2000
G1 X150.038 Y108.772 F24000
M204 S800
;TYPE:External perimeter
G1 F967
G1 X150.225 Y105.695 E.10434
G1 X150.053 Y102.862 E.09607
G1 X150.039 Y102.657 E.00696
G1 X149.641 Y100.493 E.07448
G1 F791.914
G1 X149.488 Y99.661 E.02863
G1 F666.666
G1 X149.441 Y99.51 E.00535
M204 S2000
;TYPE:Overhang perimeter
G1 F600
G1 X149.12 Y98.479 E.03655
G1 X149.12 Y97.283 E.04048
