; generated by PrusaSlicer 2.6.0-alpha6+win64 on 2024-11-13 at 11:07:21 UTC


;
;
; 

; external perimeters extrusion width = 0.45mm
; perimeters extrusion width = 0.45mm
; infill extrusion width = 0.45mm
; solid infill extrusion width = 0.68mm
; top infill extrusion width = 0.40mm
; first layer extrusion width = 0.68mm

M73 P0 R39
M73 Q0 S56
M201 X2000 Y2000 Z200 E5000 ; sets maximum accelerations, mm/sec^2
M203 X200 Y200 Z40 E300 ; sets maximum feedrates, mm / sec
M204 S2000 T2000 ; sets acceleration (S) and retract acceleration (R), mm/sec^2
M205 X8.00 Y8.00 Z0.40 E4.50 ; sets the jerk limits, mm/sec
M205 S0 T0 ; sets the minimum extruding and travel feed rate, mm/sec
;TYPE:Custom
M862.3 P "MK3S" ; printer model check
M862.1 P0.4 ; nozzle diameter check
M115 U3.12.2 ; tell printer latest fw version
G90 ; use absolute coordinates
M83 ; extruder relative mode
M104 S215 ; set extruder temp
M140 S60 ; set bed temp
M190 S60 ; wait for bed temp
M109 S215 ; wait for extruder temp
G1 E-2 F2000 ; // prevent oozing during G28
G28 W ; home all without mesh bed level
G80 ; mesh bed leveling

G1 Z0.2 F720
G1 Y-3 F1000 ; go outside print area
G92 E0
G1 X60 E9 F1000 ; intro line
G1 X100 E12.5 F1000 ; intro line

G92 E0
M221 S95

; Don't change E values below. Excessive value can damage the printer.

G21 ; set units to millimeters
G90 ; use absolute coordinates
M83 ; use relative distances for extrusion
M900 K0.05 ; Filament gcode LA 1.5
M900 K30 ; Filament gcode LA 1.0
M107
;LAYER_CHANGE
;Z:0.2
;HEIGHT:0.2
;BEFORE_LAYER_CHANGE
G92 E0.0
;0.2


G1 E-1 F2100
G1 Z.4 F1800
;AFTER_LAYER_CHANGE
;0.2
; printing object p3_t.stl id:0 copy 0
G1 X92.861 Y105 F24000
G1 Z.2 F1800
G1 E1 F2100
M204 S2000
;TYPE:Perimeter
;WIDTH:0.974447
G1 F4810
G1 X93.005 Y102.438 E.19876
G1 X93.045 Y102.17 E.02099
;WIDTH:0.967157
G1 X93.453 Y99.87 E.17952
G1 X93.554 Y99.497 E.0297
;WIDTH:0.95311
G1 X94.199 Y97.345 E.17003
G1 X94.379 Y96.892 E.03689
;WIDTH:0.933297
G1 X95.236 Y94.886 E.1615
G1 X95.505 Y94.382 E.0423
;WIDTH:0.909014
G1 X96.559 Y92.517 E.15427
G1 X96.915 Y91.992 E.04568
;WIDTH:0.881714
G1 X98.156 Y90.26 E.14861
G1 X98.592 Y89.744 E.04712
;WIDTH:0.852853
G1 X100.016 Y88.138 E.14455
G1 X100.513 Y87.656 E.04663
;WIDTH:0.823767
G1 X102.12 Y86.173 E.14198
G1 X102.658 Y85.745 E.04464
;WIDTH:0.795623
G1 X104.452 Y84.385 E.1409
G1 X105.005 Y84.025 E.0413
;WIDTH:0.769384
G1 X106.987 Y82.795 E.1409
G1 X107.53 Y82.508 E.0371
;WIDTH:0.745805
G1 X109.702 Y81.419 E.142
G1 X110.21 Y81.205 E.03222
;WIDTH:0.725462
G1 X112.571 Y80.271 E.1441
G1 X113.022 Y80.126 E.02689
;WIDTH:0.70877
G1 X115.564 Y79.366 E.1469
G1 X115.938 Y79.279 E.02126
;WIDTH:0.696031
G1 X118.651 Y78.711 E.15053
G1 X118.936 Y78.67 E.01564
;WIDTH:0.687439
G1 X121.987 Y78.303 E.16469
;WIDTH:0.683117
G1 X125.066 Y78.182 E.16403
G1 X128.013 Y78.303 E.15701
;WIDTH:0.687438
G1 X131.064 Y78.67 E.16469
;WIDTH:0.696031
G1 X131.335 Y78.708 E.01486
G1 X134.062 Y79.279 E.15131
;WIDTH:0.708771
G1 X134.423 Y79.362 E.02051
G1 X136.979 Y80.126 E.1477
;WIDTH:0.725462
G1 X137.416 Y80.266 E.02604
G1 X139.79 Y81.205 E.14489
;WIDTH:0.745806
G1 X140.284 Y81.412 E.0313
G1 X142.47 Y82.508 E.14292
;WIDTH:0.769384
G1 X142.999 Y82.786 E.0361
G1 X144.995 Y84.025 E.14191
;WIDTH:0.772365
G1 X145.103 Y84.093 E.00774
;WIDTH:0.795625
G1 X145.534 Y84.375 E.03224
G1 X147.342 Y85.745 E.14198
;WIDTH:0.798875
G1 X147.448 Y85.827 E.00842
;WIDTH:0.823768
G1 X147.88 Y86.173 E.03594
G1 X149.487 Y87.656 E.14198
;WIDTH:0.827325
G1 X149.59 Y87.754 E.00927
;WIDTH:0.852852
G1 X149.971 Y88.123 E.03572
G1 X151.408 Y89.744 E.14589
;WIDTH:0.856741
G1 X151.506 Y89.857 E.01012
;WIDTH:0.881714
G1 X151.831 Y90.242 E.03514
G1 X153.085 Y91.992 E.15016
;WIDTH:0.909015
G1 X153.43 Y92.497 E.04404
G1 X154.495 Y94.382 E.15592
;WIDTH:0.933297
G1 X154.754 Y94.864 E.04051
G1 X155.621 Y96.892 E.16329
;WIDTH:0.953107
G1 X155.794 Y97.32 E.03494
G1 X156.446 Y99.497 E.17199
;WIDTH:0.967155
G1 X156.542 Y99.843 E.02759
G1 X156.955 Y102.17 E.18163
;WIDTH:0.974445
G1 X156.993 Y102.41 E.01882
G1 X157.139 Y104.881 E.19173
;WIDTH:0.975795
G1 X157.143 Y105.027 E.01133
G1 X157.139 Y105.119 E.00714
;WIDTH:0.974444
G1 X156.995 Y107.562 E.18955
G1 X156.955 Y107.83 E.02099
;WIDTH:0.967155
G1 X156.547 Y110.13 E.17952
G1 X156.446 Y110.503 E.0297
;WIDTH:0.953108
G1 X155.801 Y112.655 E.17003
G1 X155.621 Y113.108 E.03689
;WIDTH:0.933296
G1 X154.764 Y115.114 E.1615
G1 X154.495 Y115.618 E.0423
;WIDTH:0.909013
G1 X153.441 Y117.483 E.15427
G1 X153.085 Y118.008 E.04568
;WIDTH:0.881711
G1 X151.844 Y119.74 E.14861
G1 X151.408 Y120.256 E.04712
;WIDTH:0.852851
G1 X149.984 Y121.862 E.14455
G1 X149.487 Y122.344 E.04663
;WIDTH:0.823767
G1 X147.88 Y123.827 E.14198
G1 X147.342 Y124.255 E.04464
;WIDTH:0.795624
G1 X145.548 Y125.615 E.1409
G1 X144.995 Y125.975 E.0413
;WIDTH:0.769384
G1 X143.013 Y127.205 E.1409
G1 X142.47 Y127.492 E.0371
;WIDTH:0.745806
G1 X140.298 Y128.581 E.14201
G1 X139.79 Y128.795 E.03222
;WIDTH:0.725461
G1 X137.429 Y129.729 E.1441
G1 X136.979 Y129.874 E.02683
;WIDTH:0.708769
G1 X134.436 Y130.634 E.14695
G1 X134.062 Y130.721 E.02126
;WIDTH:0.696031
G1 X131.349 Y131.289 E.15053
G1 X131.064 Y131.33 E.01564
;WIDTH:0.687438
G1 X128.013 Y131.697 E.16469
;WIDTH:0.683117
G1 X124.934 Y131.818 E.16403
G1 X121.987 Y131.697 E.15701
;WIDTH:0.68744
G1 X118.936 Y131.33 E.16469
;WIDTH:0.696032
G1 X118.665 Y131.292 E.01486
G1 X115.938 Y130.721 E.15131
;WIDTH:0.708772
G1 X115.577 Y130.638 E.02051
G1 X113.021 Y129.874 E.1477
;WIDTH:0.725462
G1 X112.584 Y129.734 E.02604
G1 X110.21 Y128.795 E.14489
;WIDTH:0.745806
G1 X109.716 Y128.588 E.0313
G1 X107.53 Y127.492 E.14292
;WIDTH:0.769386
G1 X107.001 Y127.214 E.0361
G1 X105.005 Y125.975 E.14191
;WIDTH:0.772365
G1 X104.897 Y125.907 E.00774
;WIDTH:0.795625
G1 X104.466 Y125.625 E.03224
G1 X102.658 Y124.255 E.14198
;WIDTH:0.798874
G1 X102.552 Y124.173 E.00842
;WIDTH:0.823768
G1 X102.134 Y123.84 E.0347
G1 X100.513 Y122.344 E.14322
;WIDTH:0.827324
G1 X100.41 Y122.246 E.00927
;WIDTH:0.852851
G1 X100.029 Y121.877 E.03572
G1 X98.592 Y120.256 E.14589
;WIDTH:0.856742
G1 X98.494 Y120.143 E.01012
;WIDTH:0.881714
G1 X98.169 Y119.758 E.03514
G1 X96.915 Y118.008 E.15016
;WIDTH:0.909016
G1 X96.559 Y117.483 E.04568
G1 X95.505 Y115.618 E.15428
;WIDTH:0.933298
G1 X95.246 Y115.136 E.04051
G1 X94.379 Y113.108 E.16329
;WIDTH:0.953111
G1 X94.206 Y112.68 E.03494
G1 X93.554 Y110.503 E.17199
;WIDTH:0.967157
G1 X93.458 Y110.157 E.02759
G1 X93.045 Y107.83 E.18163
;WIDTH:0.974447
G1 X93.007 Y107.59 E.01882
G1 X92.861 Y105.06 E.19629
G1 X92.069 Y105 F24000
;TYPE:External perimeter
;WIDTH:0.679999
G1 F4810
G1 X92.226 Y102.319 E.14226
G1 X92.697 Y99.662 E.14294
G1 X93.478 Y97.056 E.14411
G1 X94.561 Y94.525 E.14583
G1 X95.936 Y92.092 E.14804
G1 X97.592 Y89.781 E.15061
G1 X99.512 Y87.615 E.15333
G1 X101.679 Y85.616 E.15618
G1 X104.072 Y83.801 E.1591
G1 X106.668 Y82.191 E.16182
G1 X109.442 Y80.8 E.16439
G1 X112.368 Y79.642 E.1667
G1 X115.417 Y78.73 E.16859
G1 X118.559 Y78.071 E.17006
G1 X121.764 Y77.673 E.17108
G1 X125.008 Y77.541 E.17199
G1 X128.236 Y77.673 E.17114
G1 X131.441 Y78.071 E.17108
G1 X134.583 Y78.73 E.17006
G1 X137.632 Y79.642 E.16859
G1 X140.558 Y80.8 E.1667
G1 X143.332 Y82.191 E.16439
G1 X145.928 Y83.801 E.16182
G1 X148.321 Y85.616 E.1591
G1 X150.488 Y87.615 E.15618
G1 X152.408 Y89.781 E.15333
G1 X154.064 Y92.092 E.15061
G1 X155.439 Y94.525 E.14804
G1 X156.522 Y97.056 E.14583
G1 X157.303 Y99.662 E.14411
G1 X157.774 Y102.319 E.14294
G1 X157.927 Y105.073 E.14611
G1 X157.774 Y107.681 E.13839
G1 X157.303 Y110.338 E.14294
G1 X156.522 Y112.944 E.14411
G1 X155.439 Y115.475 E.14583
G1 X154.064 Y117.908 E.14804
G1 X152.408 Y120.219 E.15061
G1 X150.488 Y122.385 E.15333
G1 X148.321 Y124.384 E.15618
G1 X145.928 Y126.199 E.1591
G1 X143.332 Y127.809 E.16182
G1 X140.558 Y129.2 E.16439
G1 X137.632 Y130.358 E.1667
G1 X134.583 Y131.27 E.16859
G1 X131.441 Y131.929 E.17006
G1 X128.236 Y132.327 E.17108
G1 X125 Y132.46 E.17157
G1 X121.764 Y132.327 E.17157
G1 X118.559 Y131.929 E.17108
G1 X115.417 Y131.27 E.17006
G1 X112.368 Y130.358 E.16859
G1 X109.442 Y129.2 E.1667
G1 X106.668 Y127.809 E.16439
G1 X104.072 Y126.199 E.16182
G1 X101.679 Y124.384 E.1591
G1 X99.512 Y122.385 E.15618
G1 X97.592 Y120.219 E.15333
G1 X95.936 Y117.908 E.15061
G1 X94.561 Y115.475 E.14804
G1 X93.478 Y112.944 E.14583
G1 X92.697 Y110.338 E.14411
G1 X92.226 Y107.681 E.14294
G1 X92.072 Y105.06 E.13908
G1 X92.415 Y104.8 F24000
G1 E-1 F2100
G1 Z.6 F1800
G1 X152.448 Y117.446 F24000
G1 Z.2 F1800
G1 E1 F2100
;TYPE:Perimeter
;WIDTH:0.909015
G1 F4810
G1 X152.403 Y117.52 E.00624
;WIDTH:0.881715
G1 X151.162 Y119.252 E.14861
G1 X150.802 Y119.719 E.04113
;WIDTH:0.852851
G1 X149.031 Y121.698 E.17885
;WIDTH:0.827325
G1 X148.957 Y121.77 E.00673
;WIDTH:0.823768
G1 X146.963 Y123.594 E.17546
;WIDTH:0.798876
G1 X146.887 Y123.655 E.00613
;WIDTH:0.795626
G1 X145.094 Y125.015 E.14085
G1 X144.612 Y125.358 E.03703
;WIDTH:0.769386
G1 X142.63 Y126.588 E.14091
G1 X142.155 Y126.864 E.03318
;WIDTH:0.745806
G1 X139.539 Y128.16 E.17063
;WIDTH:0.725462
G1 X136.788 Y129.236 E.16765
;WIDTH:0.70877
G1 X133.928 Y130.081 E.16511
;WIDTH:0.696031
G1 X130.985 Y130.69 E.16321
;WIDTH:0.687439
G1 X127.987 Y131.057 E.16187
;WIDTH:0.683116
G1 X125.039 Y131.178 E.15706
G1 X122.013 Y131.057 E.16121
;WIDTH:0.687438
G1 X119.015 Y130.69 E.16187
;WIDTH:0.696031
G1 X116.072 Y130.082 E.1632
;WIDTH:0.708769
G1 X113.212 Y129.236 E.16513
;WIDTH:0.725462
G1 X110.461 Y128.16 E.16765
;WIDTH:0.745805
G1 X107.845 Y126.864 E.17063
;WIDTH:0.769384
G1 X107.37 Y126.588 E.03318
G1 X105.388 Y125.358 E.1409
;WIDTH:0.795624
G1 X104.906 Y125.015 E.03703
G1 X103.113 Y123.655 E.14085
;WIDTH:0.823768
G1 X102.65 Y123.254 E.03977
G1 X101.043 Y121.77 E.14202
;WIDTH:0.852851
G1 X100.622 Y121.325 E.04126
G1 X99.198 Y119.719 E.14455
;WIDTH:0.881714
G1 X98.838 Y119.252 E.04113
G1 X97.597 Y117.52 E.14861
;WIDTH:0.909014
G1 X97.313 Y117.057 E.03912
G1 X96.259 Y115.192 E.15427
;WIDTH:0.933298
G1 X96.055 Y114.763 E.03517
G1 X95.197 Y112.758 E.16146
;WIDTH:0.953111
G1 X95.071 Y112.394 E.02915
G1 X94.426 Y110.242 E.17003
;WIDTH:0.967157
G1 X94.363 Y109.969 E.02153
G1 X93.955 Y107.668 E.17959
;WIDTH:0.974447
G1 X93.791 Y105.065 E.20202
G1 X93.955 Y102.332 E.21207
;WIDTH:0.967157
G1 X94.363 Y100.031 E.17959
G1 X94.426 Y99.758 E.02153
;WIDTH:0.95311
G1 X95.071 Y97.606 E.17003
G1 X95.197 Y97.242 E.02915
;WIDTH:0.933297
G1 X96.055 Y95.237 E.16146
G1 X96.259 Y94.808 E.03517
;WIDTH:0.909015
G1 X97.313 Y92.943 E.15427
G1 X97.597 Y92.48 E.03912
;WIDTH:0.881715
G1 X98.838 Y90.748 E.14861
G1 X99.198 Y90.281 E.04113
;WIDTH:0.852853
G1 X100.969 Y88.302 E.17885
;WIDTH:0.827325
G1 X101.043 Y88.23 E.00673
;WIDTH:0.823769
G1 X103.037 Y86.406 E.17546
;WIDTH:0.798874
G1 X103.113 Y86.345 E.00613
;WIDTH:0.795625
G1 X104.906 Y84.985 E.14085
G1 X105.388 Y84.642 E.03703
;WIDTH:0.769386
G1 X107.37 Y83.412 E.14091
G1 X107.845 Y83.136 E.03318
;WIDTH:0.745806
G1 X110.461 Y81.84 E.17063
;WIDTH:0.725463
G1 X113.212 Y80.764 E.16765
;WIDTH:0.708773
G1 X116.072 Y79.919 E.16511
;WIDTH:0.696031
G1 X119.015 Y79.31 E.16321
;WIDTH:0.687441
G1 X122.013 Y78.943 E.16187
;WIDTH:0.683095
G1 X125.039 Y78.822 E.16121
G1 X127.987 Y78.943 E.15706
;WIDTH:0.687438
G1 X130.985 Y79.31 E.16187
;WIDTH:0.696031
G1 X133.928 Y79.919 E.16321
;WIDTH:0.708769
G1 X136.788 Y80.764 E.16511
;WIDTH:0.725462
G1 X139.539 Y81.84 E.16765
;WIDTH:0.745806
G1 X142.155 Y83.136 E.17063
;WIDTH:0.769384
G1 X142.63 Y83.412 E.03318
G1 X144.612 Y84.642 E.1409
;WIDTH:0.795623
G1 X145.094 Y84.985 E.03703
G1 X146.887 Y86.345 E.14085
;WIDTH:0.823766
G1 X147.35 Y86.746 E.03977
G1 X148.957 Y88.23 E.14202
;WIDTH:0.852852
G1 X149.378 Y88.675 E.04126
G1 X150.802 Y90.281 E.14455
;WIDTH:0.881711
G1 X151.162 Y90.748 E.04113
G1 X152.403 Y92.48 E.14861
;WIDTH:0.909014
G1 X152.687 Y92.943 E.03912
G1 X153.741 Y94.808 E.15427
;WIDTH:0.933297
G1 X153.945 Y95.237 E.03517
G1 X154.803 Y97.242 E.16146
;WIDTH:0.953107
G1 X154.929 Y97.606 E.02915
G1 X155.574 Y99.758 E.17003
;WIDTH:0.967155
G1 X155.637 Y100.031 E.02153
G1 X156.045 Y102.332 E.17959
;WIDTH:0.974444
G1 X156.209 Y104.935 E.20202
;WIDTH:0.975795
G1 X156.211 Y105 E.00504
G1 X156.209 Y105.065 E.00504
;WIDTH:0.974445
G1 X156.045 Y107.668 E.20202
;WIDTH:0.967155
G1 X155.637 Y109.969 E.17959
G1 X155.574 Y110.242 E.02153
;WIDTH:0.95311
G1 X154.929 Y112.394 E.17003
G1 X154.803 Y112.758 E.02915
;WIDTH:0.933296
G1 X153.945 Y114.763 E.16146
G1 X153.741 Y115.192 E.03517
;WIDTH:0.909015
G1 X152.479 Y117.395 E.18284
G1 X151.826 Y117.053 F24000
;TYPE:External perimeter
;WIDTH:0.679999
G1 F4810
G1 X150.261 Y119.239 E.14242
G1 X148.476 Y121.249 E.1424
G1 X146.467 Y123.102 E.14478
G1 X144.253 Y124.779 E.14713
G1 X141.855 Y126.265 E.14944
G1 X139.296 Y127.547 E.15162
G1 X136.601 Y128.612 E.15351
G1 X133.795 Y129.45 E.15513
G1 X130.906 Y130.054 E.15635
G1 X127.961 Y130.419 E.1572
G1 X125.013 Y130.54 E.1563
G1 X122.039 Y130.419 E.15767
G1 X119.094 Y130.054 E.1572
G1 X116.205 Y129.45 E.15635
G1 X113.399 Y128.612 E.15513
G1 X110.704 Y127.547 E.15351
G1 X108.145 Y126.265 E.15162
G1 X105.747 Y124.779 E.14944
G1 X103.533 Y123.102 E.14713
G1 X101.524 Y121.249 E.14478
G1 X99.739 Y119.239 E.1424
G1 X98.197 Y117.09 E.14011
G1 X96.913 Y114.822 E.13806
G1 X95.9 Y112.458 E.13624
G1 X95.167 Y110.02 E.13486
G1 X94.718 Y107.462 E.13758
G1 X94.574 Y104.981 E.13165
G1 X94.724 Y102.468 E.13336
G1 X95.167 Y99.98 E.13387
G1 X95.887 Y97.576 E.13294
G1 X96.897 Y95.209 E.13633
G1 X98.179 Y92.939 E.1381
G1 X99.719 Y90.787 E.14018
G1 X101.501 Y88.774 E.14242
G1 X103.533 Y86.898 E.1465
G1 X105.747 Y85.221 E.14713
G1 X108.145 Y83.735 E.14944
G1 X110.704 Y82.453 E.15162
G1 X113.399 Y81.388 E.15351
G1 X116.205 Y80.55 E.15513
G1 X119.094 Y79.946 E.15635
G1 X122.039 Y79.581 E.1572
G1 X124.987 Y79.46 E.1563
G1 X127.961 Y79.581 E.15767
G1 X130.906 Y79.946 E.1572
G1 X133.795 Y80.55 E.15635
G1 X136.601 Y81.388 E.15513
G1 X139.296 Y82.453 E.15351
G1 X141.855 Y83.735 E.15162
G1 X144.253 Y85.221 E.14944
G1 X146.467 Y86.898 E.14713
G1 X148.476 Y88.751 E.14478
G1 X150.261 Y90.761 E.1424
G1 X151.803 Y92.91 E.14011
G1 X153.087 Y95.178 E.13806
G1 X153.243 Y95.537 E.02074
G1 X154.1 Y97.542 E.11551
G1 X154.833 Y99.98 E.13486
G1 X155.276 Y102.468 E.13387
G1 X155.426 Y105 E.13436
G1 X155.28 Y107.495 E.13239
G1 X154.841 Y109.984 E.13389
G1 X154.113 Y112.424 E.13489
G1 X153.103 Y114.791 E.13633
G1 X151.855 Y117.001 E.13445
G1 X152.011 Y117.408 F24000
; stop printing object p3_t.stl id:0 copy 0
M106 S84.15
;LAYER_CHANGE
;Z:0.4
;HEIGHT:0.2
;BEFORE_LAYER_CHANGE
G92 E0.0
;0.4


G1 E-1 F2100
G1 Z.6 F1800
;AFTER_LAYER_CHANGE
;0.4
; printing object p3_t.stl id:0 copy 0
G1 X92.161 Y105 F24000
G1 Z.4 F1800
G1 E1 F2100
M204 S1500
;TYPE:Perimeter
;WIDTH:0.449999
G1 F11054.364
G1 X92.318 Y102.329 E.09057
G1 X92.787 Y99.684 E.09093
G1 X93.564 Y97.088 E.09172
G1 X94.643 Y94.566 E.09285
G1 X96.014 Y92.141 E.09429
G1 X97.664 Y89.839 E.09587
G1 X99.578 Y87.68 E.09766
G1 X101.738 Y85.686 E.0995
G1 X104.124 Y83.877 E.10135
G1 X106.713 Y82.271 E.10313
G1 X109.48 Y80.884 E.10477
G1 X112.398 Y79.729 E.10623
G1 X115.439 Y78.819 E.10744
G1 X118.574 Y78.162 E.10842
G1 X121.771 Y77.765 E.10905
G1 X125.049 Y77.635 E.11104
G1 X128.229 Y77.765 E.10773
G1 X131.426 Y78.162 E.10905
G1 X134.561 Y78.819 E.10842
G1 X137.602 Y79.729 E.10744
G1 X140.52 Y80.884 E.10623
G1 X143.287 Y82.271 E.10477
G1 X145.876 Y83.877 E.10313
G1 X148.262 Y85.686 E.10135
G1 X150.422 Y87.68 E.0995
G1 X152.336 Y89.839 E.09766
G1 X153.986 Y92.141 E.09587
G1 X155.357 Y94.566 E.09429
G1 X156.436 Y97.088 E.09285
G1 X157.213 Y99.684 E.09172
G1 X157.682 Y102.329 E.09093
G1 X157.839 Y105 E.09057
G1 X157.682 Y107.671 E.09057
G1 X157.213 Y110.316 E.09093
G1 X156.436 Y112.912 E.09172
G1 X155.357 Y115.434 E.09285
G1 X153.986 Y117.859 E.09429
G1 X152.336 Y120.161 E.09587
G1 X150.422 Y122.32 E.09766
G1 X148.262 Y124.314 E.0995
G1 X145.876 Y126.123 E.10135
G1 X143.287 Y127.729 E.10313
G1 X140.52 Y129.116 E.10477
G1 X137.602 Y130.271 E.10623
G1 X134.561 Y131.181 E.10744
G1 X131.426 Y131.838 E.10842
G1 X128.229 Y132.235 E.10905
G1 X125 Y132.367 E.10939
